!!!!SEGMENT: pl-wtm--r-71-n--005_noskowski-zygmunt--powrot-suita-krakowiakow-allegretto-moderato.krn
!!!cenid: 18xx:2115
!!!COM: Noskowski, Zygmunt
!!!COM-rismid: pe106604
!!!CDT: 1846/05/02-1909/07/23
!!!CNT: Polish
!!!OPR: Powrót - Suita krakowiaków
!!!OTL: Allegretto moderato
!!!OMV: 005
!!!PDT: 1894
!!!AGN: Secular
!!!SMS-siglum: PL-Wtm
!!!SMS-shelfmark: R 71/N
!!!SMS-shelfwork: 001-005 M
!!!SMS-variant:
!!!SMS-altvar:
!!!NIFC-rismid: 1001096000
!!!URL-scan: http://repozytorium.nifc.pl/skany/pl-wtm-nut--r71n
!!!ONB-nifc: UWAGA: Numeracja krakowiaków zgodna z kolejnością źródłową (I-VIII)
!!!AIN: 1 alto 3 empty 1 soprn 1 tenor
!!!key:
**kern	**kern	**dynam	**kern	**kern	**dynam	**kern	**text	**dynam	**kern	**text	**dynam	**kern	**text	**dynam	**kern	**text	**dynam
*part6	*part6	*part6	*part5	*part5	*part5	*part4	*part4	*part4	*part3	*part3	*part3	*part2	*part2	*part2	*part1	*part1	*part1
*staff8	*staff7	*	*staff6	*staff5	*	*staff4	*staff4	*	*staff3	*staff3	*	*staff2	*staff2	*	*staff1	*staff1	*
*Iempty	*Iempty	*	*Iempty	*Iempty	*	*Iempty	*	*	*Itenor	*	*	*Ialto	*	*	*Isoprn	*	*
*I"2do	*I"2do	*	*I"Io	*I"Io	*	*I"B.	*	*	*I"Ten	*	*	*I"Alt	*	*	*I"Sop	*	*
*	*	*	*	*	*	*I'B	*	*	*I'T.	*	*	*I'A	*	*	*I'S.	*	*
*clefF4	*clefF4	*	*clefF4	*clefG2	*	*clefF4	*	*	*clefGv2	*	*	*clefG2	*	*	*clefG2	*	*
*k[b-]	*k[b-]	*	*k[b-]	*k[b-]	*	*k[b-]	*	*	*k[b-]	*	*	*k[b-]	*	*	*k[b-]	*	*
*d:	*d:	*	*d:	*d:	*	*d:	*	*	*d:	*	*	*d:	*	*	*d:	*	*
*M2/4	*M2/4	*	*M2/4	*M2/4	*	*M2/4	*	*	*M2/4	*	*	*M2/4	*	*	*M2/4	*	*
=1	=1	=1	=1	=1	=1	=1	=1	=1	=1	=1	=1	=1	=1	=1	=1	=1	=1
*	*	*	*	*	*	*	*	*	*	*	*	*	*	*	*^	*	*
!	!LO:TX:a:i:t=Allegretto moderato	!	!	!LO:TX:a:i:t=Allegretto moderato	!	!	!	!	!	!	!	!	!	!	!LO:TX:a:B:t=Allegretto moderato.	!	!	!
!	!LO:TX:b:i:t=Sempre  una corda!	!	!	!	!LO:DY:rj	!	!	!	!	!	!	!	!	!	!LO:TX:t=P:problem=w taktach 1-9 sopran i alt na jednym systemie	!	!	!
2r	2r	.	8A\L 8F'\	8f/L 8d'/	pp	2r	.	.	2r	.	.	2r	.	.	2raa	2rc	.	.
.	.	.	8A\ 8F'\	8f/ 8d'/	.	.	.	.	.	.	.	.	.	.	.	.	.	.
.	.	.	8A\ 8F'\	8f/ 8d'/	.	.	.	.	.	.	.	.	.	.	.	.	.	.
.	.	.	8A\J 8F'\	8f/J 8d'/	.	.	.	.	.	.	.	.	.	.	.	.	.	.
=2	=2	=2	=2	=2	=2	=2	=2	=2	=2	=2	=2	=2	=2	=2	=2	=2	=2	=2
2r	2r	.	8A\L 8F'\	8f/L 8d'/	.	2r	.	.	2r	.	.	2r	.	.	2raa	2rc	.	.
.	.	.	8A\ 8F'\	8f/ 8d'/	.	.	.	.	.	.	.	.	.	.	.	.	.	.
.	.	.	8A\ 8F'\	8f/ 8d'/	.	.	.	.	.	.	.	.	.	.	.	.	.	.
.	.	.	8A\J 8F'\	8f/J 8d'/	.	.	.	.	.	.	.	.	.	.	.	.	.	.
=3	=3	=3	=3	=3	=3	=3	=3	=3	=3	=3	=3	=3	=3	=3	=3	=3	=3	=3
*	*	*	*rep	*rep	*	*	*	*	*	*	*	*	*	*	*	*	*	*
!	!LO:TX:a:i:t=mysterioso	!	!	!	!	!	!	!	!	!	!	!	!	!	!	!	!	!
(16DD/LL	(16D/LL	pp	8A\L 8F'\	8f/L 8d'/	.	2r	.	.	2r	.	.	2r	.	.	2raa	2rc	.	.
16CC/J	16C/J	.	.	.	.	.	.	.	.	.	.	.	.	.	.	.	.	.
8AAA/J)	8AA'/J)	.	8A\ 8F'\	8f/ 8d'/	.	.	.	.	.	.	.	.	.	.	.	.	.	.
8BBB-'/L	8BB-'/L	.	8A\ 8F'\	8f/ 8d'/	.	.	.	.	.	.	.	.	.	.	.	.	.	.
8DD'/J	8D'/J	.	8A\J 8F'\	8f/J 8d'/	.	.	.	.	.	.	.	.	.	.	.	.	.	.
*	*	*	*Xrep	*Xrep	*	*	*	*	*	*	*	*	*	*	*	*	*	*
=4	=4	=4	=4	=4	=4	=4	=4	=4	=4	=4	=4	=4	=4	=4	=4	=4	=4	=4
*	*	*	*rep	*rep	*	*	*	*	*	*	*	*	*	*	*	*	*	*
8CC'/	8C'/	.	8A\L 8F'\	8f/L 8d'/	.	2r	.	.	2r	.	.	2r	.	.	2raa	2rc	.	.
4AAA^/	4AA^/	.	8A\ 8F'\	8f/ 8d'/	.	.	.	.	.	.	.	.	.	.	.	.	.	.
.	.	.	8A\ 8F'\	8f/ 8d'/	.	.	.	.	.	.	.	.	.	.	.	.	.	.
8r	8r	.	8A\J 8F'\	8f/J 8d'/	.	.	.	.	.	.	.	.	.	.	.	.	.	.
*	*	*	*Xrep	*Xrep	*	*	*	*	*	*	*	*	*	*	*	*	*	*
*	*	*	*	*	*	*	*	*	*	*	*	*	*	*	*v	*v	*	*
=5	=5	=5	=5	=5	=5	=5	=5	=5	=5	=5	=5	=5	=5	=5	=5	=5	=5
*8ba	*	*	*	*	*	*	*	*	*	*	*	*	*	*	*	*	*
*	*	*	*	*	*	*	*	*	*	*	*	*	*	*	*^	*	*
(<16GGG/LL	(16GG/LL	.	8B-\L 8E'\	8e/L 8d'/	.	2r	.	.	2r	.	.	2r	.	.	2raa	2rc	.	.
16FFF/J	16FF/J	.	.	.	.	.	.	.	.	.	.	.	.	.	.	.	.	.
8EEE'/J)	8EE/J)	.	8B-\ 8E'\	8e/ 8d'/	.	.	.	.	.	.	.	.	.	.	.	.	.	.
8FFF'/L	8FF'/L	.	8B-\ 8E'\	8e/ 8d'/	.	.	.	.	.	.	.	.	.	.	.	.	.	.
8GGG'/J	8GG'/J	.	8B-\J 8E'\	8e/J 8d'/	.	.	.	.	.	.	.	.	.	.	.	.	.	.
=6	=6	=6	=6	=6	=6	=6	=6	=6	=6	=6	=6	=6	=6	=6	=6	=6	=6	=6
8EEE'/	8EE'/	.	8A\L 8F'\	8f/L 8d'/	.	2r	.	.	2r	.	.	2r	.	.	2raa	2rc	.	.
4DDD^>/	4DD^/	.	8A\ 8F'\	8f/ 8d'/	.	.	.	.	.	.	.	.	.	.	.	.	.	.
.	.	.	8A\ 8F'\	8f/ 8d'/	.	.	.	.	.	.	.	.	.	.	.	.	.	.
8r	8r	.	8A\J 8F'\	8f/J 8d'/	.	.	.	.	.	.	.	.	.	.	.	.	.	.
=7	=7	=7	=7	=7	=7	=7	=7	=7	=7	=7	=7	=7	=7	=7	=7	=7	=7	=7
(16CCC/LL	(16CC/LL	.	8B-\L 8G'\	8g/L 8e'/	.	2r	.	.	2r	.	.	2r	.	.	2raa	2rc	.	.
16DDD/J	16DD/J	.	.	.	.	.	.	.	.	.	.	.	.	.	.	.	.	.
8EEE'/J)	8EE'/J)	.	8B-\J 8G'\	8g/ 8e'/	.	.	.	.	.	.	.	.	.	.	.	.	.	.
4FFF^/	4FF^/	.	8A\L 8F'\	8f/ 8c'/	.	.	.	.	.	.	.	.	.	.	.	.	.	.
.	.	.	8A\J 8F'\	8f/J 8c'/	.	.	.	.	.	.	.	.	.	.	.	.	.	.
=8	=8	=8	=8	=8	=8	=8	=8	=8	=8	=8	=8	=8	=8	=8	=8	=8	=8	=8
(16GGG/LL	(16GG/LL	<	8G\L 8E'\	8e/L 8c'/	.	2r	.	.	2r	.	.	2r	.	.	2raa	2rc	.	.
16AAA/JJ	16AA/JJ	.	.	.	.	.	.	.	.	.	.	.	.	.	.	.	.	.
4BBB-/)	4BB-/)	[	8G\ 8E'\	8e/ 8c'/	.	.	.	.	.	.	.	.	.	.	.	.	.	.
.	.	.	8G\ 8E'\	8e/ 8c'/	.	.	.	.	.	.	.	.	.	.	.	.	.	.
8GGG'/	8GG'/	>	8G\J 8E'\	8e/J 8c'/	.	.	.	.	.	.	.	.	.	.	.	.	.	.
=9	=9	=9	=9	=9	=9	=9	=9	=9	=9	=9	=9	=9	=9	=9	=9	=9	=9	=9
8FFF'/L	8FF'/L	.	8A\L 8F'\	8f/L 8c'/	.	2r	.	.	2r	.	.	2r	.	.	2raa	2rc	.	.
8DDD'/J	8DD'/J	]	8A\ 8F'\	8f/ 8Bn'/	.	.	.	.	.	.	.	.	.	.	.	.	.	.
8.CCC^>/L	8.CC^/L	.	8A\ 8F'\	8f/ 8c'/	.	.	.	.	.	.	.	.	.	.	.	.	.	.
.	.	.	8B-X\J 8G'\	8g/J 8c'/	.	.	.	.	.	.	.	.	.	.	.	.	.	.
16EEE'/Jk	16EE'/Jk	.	.	.	.	.	.	.	.	.	.	.	.	.	.	.	.	.
*	*	*	*	*	*	*	*	*	*	*	*	*	*	*	*v	*v	*	*
!!LO:LB:g=original
=10	=10	=10	=10	=10	=10	=10	=10	=10	=10	=10	=10	=10	=10	=10	=10	=10	=10
(16FFF/LL	(16FF/LL	<	8A\L 8F'\	8f/L 8c'/	.	2r	.	.	2r	.	.	2r	.	.	2r	.	.
16AAA/JJ	16AA/JJ	.	.	.	.	.	.	.	.	.	.	.	.	.	.	.	.
4.CC/)	4.C/)	[	8A\ 8F'\	8f/J 8c'/	.	.	.	.	.	.	.	.	.	.	.	.	.
.	.	.	8A\ 8F'\	8e/L 8c'/	.	.	.	.	.	.	.	.	.	.	.	.	.
.	.	.	8A\J 8F'\	8f/J 8c'/	.	.	.	.	.	.	.	.	.	.	.	.	.
=11	=11	=11	=11	=11	=11	=11	=11	=11	=11	=11	=11	=11	=11	=11	=11	=11	=11
(16BBB-/LL	(16BB-/LL	>	8c\L 8G\	8g/L 8e/	.	2r	.	.	2r	.	.	2r	.	.	2r	.	.
16AAA/J	16AA/J	.	.	.	.	.	.	.	.	.	.	.	.	.	.	.	.
8GGG'/J)	8GG'/J)	.	8c\J 8G'\	8g/J 8e'/	.	.	.	.	.	.	.	.	.	.	.	.	.
4FFF^/	4FF^/	]	8c\L 8A'\	8a/L 8f'/	.	.	.	.	.	.	.	.	.	.	.	.	.
.	.	.	8c\J 8A'\	8a/J 8f'/	.	.	.	.	.	.	.	.	.	.	.	.	.
=12	=12	=12	=12	=12	=12	=12	=12	=12	=12	=12	=12	=12	=12	=12	=12	=12	=12
(16EEE/LL	(16EE/LL	.	8d\L 8B-'\	8b-/L 8g'/	.	2r	.	.	2r	.	.	2r	.	.	2r	.	.
16FFF/JJ	16FF/JJ	.	.	.	.	.	.	.	.	.	.	.	.	.	.	.	.
4GGG/)	4GG/)	.	8d\ 8B-'\	8b-/ 8g'/	.	.	.	.	.	.	.	.	.	.	.	.	.
.	.	.	8d\ 8B-'\	8b-/ 8g'/	.	.	.	.	.	.	.	.	.	.	.	.	.
8AAA'/	8AA'/	.	8c\J 8A'\	8a/J 8e'/	.	.	.	.	.	.	.	.	.	.	.	.	.
=13	=13	=13	=13	=13	=13	=13	=13	=13	=13	=13	=13	=13	=13	=13	=13	=13	=13
(16GGG/LL	(16GG/LL	.	8d\L 8B-'\	8e'/L	.	2r	.	.	2r	.	.	2r	.	.	2r	.	.
16FFF/J	16FF/J	.	.	.	.	.	.	.	.	.	.	.	.	.	.	.	.
8EEE/J)	8EE/J)	.	8d\ 8B-'\	8g'/	.	.	.	.	.	.	.	.	.	.	.	.	.
8FFF'/L	8FF'/L	.	8c\ 8A'\	8f'/	.	.	.	.	.	.	.	.	.	.	.	.	.
8GGG'/J	8GG'/J	.	8B-\J 8G'\	8e'/J	.	.	.	.	.	.	.	.	.	.	.	.	.
=14	=14	=14	=14	=14	=14	=14	=14	=14	=14	=14	=14	=14	=14	=14	=14	=14	=14
8EEE'/	8EE'/	.	8A\L 8F'\	8f/L 8d'/	.	2r	.	.	2r	.	.	2r	.	.	2r	.	.
4DDD^/	4DD^/	.	8A\ 8F'\	8f/ 8d'/	.	.	.	.	.	.	.	.	.	.	.	.	.
.	.	.	8A\ 8F'\	8f/ 8d'/	.	.	.	.	.	.	.	.	.	.	.	.	.
*X8ba	*	*	*	*	*	*	*	*	*	*	*	*	*	*	*	*	*
8r	8r	.	8A\J 8F'\	8f/J 8d'/	.	.	.	.	.	.	.	.	.	.	.	.	.
=15	=15	=15	=15	=15	=15	=15	=15	=15	=15	=15	=15	=15	=15	=15	=15	=15	=15
!	!	!	!	!LO:TX:a:i:t=mysterioso	!	!	!	!LO:DY:rj	!	!	!LO:DY:rj	!	!	!LO:DY:rj	!	!	!LO:DY:rj
8DD'/L	8D'\L	.	8A\L 8F'\	8d'/L	.	8D\	.	pp	8F/	.	pp	8A/	.	pp	8d/	I	pp
8DD'/	8D'\	.	8A'\	8e/ 8c'/	.	8D\	.	.	8A/	.	.	8c/	.	.	8e/	szli	.
8DD'/	8D'\	.	8A'\	8f/ 8d'/	.	8D\	.	.	8A/	.	.	8d/	.	.	8f/	da-	.
8DD'/J	8D'\J	.	8A'\J	8a/J 8f'/	.	8D\	.	.	8A/	.	.	8f/	.	.	8a/	-lej	.
=16	=16	=16	=16	=16	=16	=16	=16	=16	=16	=16	=16	=16	=16	=16	=16	=16	=16
*rep	*rep	*	*	*	*	*	*	*	*	*	*	*	*	*	*	*	*
8DD'/L	8D'\L	.	8A'\L	(16cc/LL 16a/	.	8D\	.	.	8A/	.	.	(16a/LL	.	.	(16cc\LL	po-	.
.	.	.	.	16b-/J 16g/	.	.	.	.	.	.	.	16g/JJ)	.	.	16b-\JJ)	.	.
8DD'/	8D'\	.	8A'\	8a/J 8f/)	.	8D\	.	.	8A/	.	.	8f/	.	.	8a/	-śpie-	.
8DD'/	8D'\	.	8A'\	8dd/L 8f'/	.	8D\	.	.	8A/	.	.	8f/	.	.	8dd\	-wu-	.
8DD'/J	8D'\J	.	8A'\J	8cc/J 8f'/	.	8D\	.	.	8A/	.	.	8f/	.	.	8cc\	-jąc,	.
*Xrep	*Xrep	*	*	*	*	*	*	*	*	*	*	*	*	*	*	*	*
!!LO:PB:g=original
=17	=17	=17	=17	=17	=17	=17	=17	=17	=17	=17	=17	=17	=17	=17	=17	=17	=17
8DD'/L	8D'\L	.	8A'\L	(16cc/LL 16f/	.	8D\	.	.	8A/	.	.	8f/	.	.	(16cc\LL	Po-	.
.	.	.	.	16b-/J)	.	.	.	.	.	.	.	.	.	.	16b-\JJ)	.	.
8DD'/	8D'\	.	8A'\	8a/J 8f'/	.	8D\	.	.	8A/	.	.	8f/	.	.	8a/	-brzę-	.
8DD'/	8D'\	.	8G'\	8b-/L 8e'/	.	8D\	.	.	8G/	.	.	8e/	.	.	8b-/	-ku-	.
8DD'/J	8D'\J	.	8A'\J	8g/J 8e'/	.	8D\	.	.	8B-/	.	.	8e/	.	.	8g/	-jąc	.
=18	=18	=18	=18	=18	=18	=18	=18	=18	=18	=18	=18	=18	=18	=18	=18	=18	=18
*rep	*rep	*	*	*	*	*	*	*	*	*	*	*	*	*	*	*	*
8DD'/L	8D'\L	.	8A'\L	(8a/L 8f'/	.	8D\	.	.	8A/	.	.	8f/	.	.	8a/	O-	.
8DD'/	8D'\	.	8A'\	16g/L 16e/)	.	8D\	.	.	8A/	.	.	(16e/LL	.	.	(16g/LL	-stro-	.
.	.	.	.	16f/JJ 16d/	.	.	.	.	.	.	.	16d/JJ)	.	.	16f/JJ)	.	.
8DD'/	8D'\	.	8G'\	8e'/L	.	8D\	.	.	8G/	.	.	8d/	.	.	8e/	-ga-	.
8DD'/J	8D'\J	.	8F'\J	8d'/J	.	8D\	.	.	8F/	.	.	8d/	.	.	8d/	-mi,	.
*Xrep	*Xrep	*	*	*	*	*	*	*	*	*	*	*	*	*	*	*	*
=19	=19	=19	=19	=19	=19	=19	=19	=19	=19	=19	=19	=19	=19	=19	=19	=19	=19
[2DD/	[2D\	.	(4B-\	(4e/ 4d/	.	4D\	.	.	4B-/	.	.	4d/	.	.	4e/	sza-	.
.	.	.	4A\)	4f/ 4c/)	.	4D\	.	.	4A/	.	.	4c/	.	.	4f/	-bel-	.
=20	=20	=20	=20	=20	=20	=20	=20	=20	=20	=20	=20	=20	=20	=20	=20	=20	=20
*	*	*	*^	*	*	*	*	*	*	*	*	*	*	*	*	*	*
2DD/]	2D\]	.	2B-/	(4G\	(4g/	.	2D\	.	.	(4G/	.	.	2B-/	.	.	(4g/	-ka-	.
.	.	.	.	4E\)	4a/)	.	.	.	.	4E/)	.	.	.	.	.	4a/)	.	.
*	*	*	*v	*v	*	*	*	*	*	*	*	*	*	*	*	*	*	*
=21	=21	=21	=21	=21	=21	=21	=21	=21	=21	=21	=21	=21	=21	=21	=21	=21	=21
(16DD/LL	(16D/LL	.	8A\L 8F'\	8d'/L	.	[2D\	.	.	[2F/	.	.	[2A/	.	.	[2d/	-mi.	.
16CC/J	16C/J	.	.	.	.	.	.	.	.	.	.	.	.	.	.	.	.
8AAA/J)	8AA/J)	.	8A\ 8F'\	8d'/	.	.	.	.	.	.	.	.	.	.	.	.	.
8BBB-'/L	8BB-'/L	.	8A\ 8F'\	8d'/	.	.	.	.	.	.	.	.	.	.	.	.	.
8DD'/J	8D'/J	.	8A\J 8F'\	8d'/J	.	.	.	.	.	.	.	.	.	.	.	.	.
=22	=22	=22	=22	=22	=22	=22	=22	=22	=22	=22	=22	=22	=22	=22	=22	=22	=22
8CC'/	8C'/	.	8A\L 8F'\	8f/L 8d'/	.	4D\]	.	.	4F/]	.	.	4A/]	.	.	4d/]	.	.
4AAA^>/	4AA^/	.	8A\ 8F'\	8f/ 8d'/	.	.	.	.	.	.	.	.	.	.	.	.	.
.	.	.	8A\ 8F'\	8f/ 8d'/	.	4r	.	.	4r	.	.	4r	.	.	4r	.	.
8r	8r	.	8A\J 8F'\	8f/J 8d'/	.	.	.	.	.	.	.	.	.	.	.	.	.
=23	=23	=23	=23	=23	=23	=23	=23	=23	=23	=23	=23	=23	=23	=23	=23	=23	=23
*8ba	*	*	*	*	*	*	*	*	*	*	*	*	*	*	*	*	*
(16GGG/LL	(16GG/LL	.	8B-\L 8E'\	8e/L 8d'/	.	2r	.	.	2r	.	.	2r	.	.	2r	.	.
16FFF/J	16FF/J	.	.	.	.	.	.	.	.	.	.	.	.	.	.	.	.
8EEE/J)	8EE/J)	.	8B-\ 8E'\	8e/ 8d'/	.	.	.	.	.	.	.	.	.	.	.	.	.
8FFF'/L	8FF'/L	.	8B-\ 8E'\	8e/ 8d'/	.	.	.	.	.	.	.	.	.	.	.	.	.
8GGG'/J	8GG'/J	.	8B-\J 8E'\	8e/J 8d'/	.	.	.	.	.	.	.	.	.	.	.	.	.
!!LO:LB:g=original
=24	=24	=24	=24	=24	=24	=24	=24	=24	=24	=24	=24	=24	=24	=24	=24	=24	=24
8EEE'/	8EE'/	.	8A\L 8F'\	8f/L 8d'/	.	2r	.	.	2r	.	.	2r	.	.	2r	.	.
4DDD^>/	4DD^/	.	8A\J 8F'\	8f/J 8d'/	.	.	.	.	.	.	.	.	.	.	.	.	.
.	.	.	8A\L 8F'\	8f/L 8d'/	.	.	.	.	.	.	.	.	.	.	.	.	.
8r	8r	.	8F\J 8D'\	8a/J 8d'/	.	.	.	.	.	.	.	.	.	.	.	.	.
=25	=25	=25	=25	=25	=25	=25	=25	=25	=25	=25	=25	=25	=25	=25	=25	=25	=25
!	!	!	!	!	!	!	!	!LO:DY:b:rj	!	!	!LO:DY:rj	!	!	!LO:DY:rj	!	!	!LO:DY:rj
(16CCC/LL	(16CC/LL	.	8E\L 8C'\	8b-/L 8c'/	.	8C/	.	pp	8E/	.	pp	8c/	.	pp	8b-/	Ten-	pp
16DDD/J	16DD/J	.	.	.	.	.	.	.	.	.	.	.	.	.	.	.	.
8EEE'/J)	8EE'/J)	.	8B-\J 8C'\	8g/ 8c'/	.	8C/	.	.	8B-/	.	.	8c/	.	.	8g/	-tent	.
4FFF^/	4FF^/	.	8A\L 8C'\	8f/ 8c'/	.	8C/	.	.	8A/	.	.	8c/	.	.	8f/	ko-	.
.	.	<	8A\J 8C'\	8dd/J 8f'/	.	8C/	.	.	8A/	.	.	8f/	.	.	8dd\	-pyt,	.
=26	=26	=26	=26	=26	=26	=26	=26	=26	=26	=26	=26	=26	=26	=26	=26	=26	=26
(16GGG/LL	(16GG/LL	.	8G\L 8C'\	8dd/L 8e'/	.	8C/	.	.	8G/	.	.	8e/	.	.	8dd\	chrzę-	.
16AAA/JJ	16AA/JJ	.	.	.	.	.	.	.	.	.	.	.	.	.	.	.	.
4BBB-/)	4BB-/)	[	8G\J 8C'\	8cc/J 8e'/	.	8C/	.	.	8G/	.	.	8e/	.	.	8cc\	-sty	.
.	.	.	8E\L 8C'\	(16g/LL 16c'/	.	8C/	.	.	8E/	.	.	8c/	.	.	(16g/LL	bro-	.
.	.	.	.	16a/J)	.	.	.	.	.	.	.	.	.	.	16a/JJ)	.	.
8GGG'/	8GG'/	.	8E\J 8C'\	8b-'/J	.	8C/	.	.	8E/	.	.	8c/	.	.	8b-/	-ni,	.
=27	=27	=27	=27	=27	=27	=27	=27	=27	=27	=27	=27	=27	=27	=27	=27	=27	=27
8FFF'/L	8FF'/L	>	8F\L 8C'\	(16a/LL	.	8C/	.	.	8F/	.	.	8c/	.	.	(16a/LL	Wiatr	.
.	.	.	.	16b-/	.	.	.	.	.	.	.	.	.	.	16b-/JJ)	.	.
8DDD'/J	8DD'/J	]	8A\ 8C'\	16cc/ 16f/	.	8C/	.	.	8A/	.	.	8f/	.	.	(16cc\LL	roz-	.
.	.	.	.	16dd/JJ)	.	.	.	.	.	.	.	.	.	.	16dd\JJ)	.	.
8.CCC^>/L	8.CC^/L	.	8B-\ 8C'\	8ee/L 8g'/	.	8C/	.	.	8B-\	.	.	8g/	.	.	8ee\	-wie-	.
.	.	.	8B-'\J	8dd/J 8g'/	.	8C/	.	.	8B-\	.	.	8g/	.	.	8dd\	-wa	.
16EEE'/Jk	16EE'/Jk	.	.	.	.	.	.	.	.	.	.	.	.	.	.	.	.
=28	=28	=28	=28	=28	=28	=28	=28	=28	=28	=28	=28	=28	=28	=28	=28	=28	=28
(16FFF/LL	(16FF/LL	.	(8c\	(4.cc/ 4.a/	.	4.C/	.	.	(8c\	.	.	4.a/	.	.	4.cc\	hen,	.
16AAA/JJ	16AA/JJ	.	.	.	.	.	.	.	.	.	.	.	.	.	.	.	.
[4.CC/)	[4.C/)	.	4f\	.	.	.	.	.	4f\)	.	.	.	.	.	.	.	.
.	.	.	8c\)	8a/ 8f/)	.	8F\	.	.	8c\	.	.	8f/	.	.	8a/	po	.
=29	=29	=29	=29	=29	=29	=29	=29	=29	=29	=29	=29	=29	=29	=29	=29	=29	=29
*	*	*	*^	*^	*	*	*	*	*	*	*	*	*	*	*	*	*
2CC/]	2C/]	.	2c/	(>8G\	(8b-/	2e\	.	(8G\	.	.	2c\	.	.	2e/	.	.	(8b-\	bło-	.
.	.	.	.	4B-\	4dd/	.	.	4B-\	.	.	.	.	.	.	.	.	4dd\	.	.
.	.	.	.	8G\)	8b-/)	.	.	8G\)	.	.	.	.	.	.	.	.	8b-\)	.	.
*	*	*	*v	*v	*	*	*	*	*	*	*	*	*	*	*	*	*	*	*
*	*	*	*	*v	*v	*	*	*	*	*	*	*	*	*	*	*	*	*
!!LO:PB:g=original
=30	=30	=30	=30	=30	=30	=30	=30	=30	=30	=30	=30	=30	=30	=30	=30	=30	=30
8CC'/	8C'/	.	2c\ 2F\	2a/ 2f/	.	2F\	.	.	2c\	.	.	2f/	.	.	2a/	-ni,	.
(4FFF^/	(4FF^/	.	.	.	.	.	.	.	.	.	.	.	.	.	.	.	.
16GGG/LL	16GG/LL	.	.	.	.	.	.	.	.	.	.	.	.	.	.	.	.
16AAA/JJ)	16AA/JJ)	.	.	.	.	.	.	.	.	.	.	.	.	.	.	.	.
=31	=31	=31	=31	=31	=31	=31	=31	=31	=31	=31	=31	=31	=31	=31	=31	=31	=31
(16BBB-/LL	(16BB-/LL	.	8B-\L 8D'\	8g/L 8d'/	.	8D\	.	.	8B-\	.	.	8d/	.	.	8g/	A	.
16AAA/J	16AA/J	.	.	.	.	.	.	.	.	.	.	.	.	.	.	.	.
8GGG'/J)	8GG'/J)	.	8B-\ 8D'\	8e/ 8d'/	.	8D\	.	.	8B-\	.	.	8d/	.	.	8e/	zaś	.
4FFF/	4FF/	.	8A\ 8D'\	8d'/	.	8D\	.	.	8A/	.	.	8d/	.	.	8d/	piosn-	.
.	.	.	8A\J 8D'\	8b-/J 8d'/	.	8D\	.	.	8A/	.	.	8d/	.	.	8b-/	-ka	.
=32	=32	=32	=32	=32	=32	=32	=32	=32	=32	=32	=32	=32	=32	=32	=32	=32	=32
(16EEE/LL	(16EE/LL	.	8B-\L 8D'\	8a/L 8d'/	.	8D\	.	.	8B-\	.	.	8d/	.	.	8a/	ich	.
16FFF/JJ	16FF/JJ	.	.	.	.	.	.	.	.	.	.	.	.	.	.	.	.
4GGG/)	4GG/)	.	8B-\ 8D'\	8g/ 8d'/	.	8D\	.	.	8B-\	.	.	8d/	.	.	8g/	kra-	.
.	.	.	8B-\ 8G'\	8e/ 8d'/	.	8G\	.	.	8B-\	.	.	8d/	.	.	8e/	-kow-	.
8AAA'/	8AA'/	.	8A\J 8F'\	8f/J 8d'/	.	8F\	.	.	8A/	.	.	8d/	.	.	8f/	-ska	.
=33	=33	=33	=33	=33	=33	=33	=33	=33	=33	=33	=33	=33	=33	=33	=33	=33	=33
*	*	*	*	*	*	*	*	*below	*	*	*below	*	*	*below	*	*	*
!	!	!	!	!	!	!	!	!	!	!	!	!	!	!	!	!	!LO:DY:a
(16GGG/LL	(16GG/LL	<	8d\L 8B-\ 8E'\	(16g/LL	<	8E\	.	<	8B-\	.	<	8d/	.	<	(16g/LL	Bi-	<
16FFF/J	16FF/J	.	.	16a/	.	.	.	.	.	.	.	.	.	.	16a/JJ)	.	.
8EEE/J)	8EE/J)	.	8d\J 8B-\ 8G'\	16b-/	.	8G\	.	.	8B-\	.	.	8d/	.	.	(16b-\LL	-je	.
.	.	.	.	16cc/JJ)	[	.	.	.	.	.	.	.	.	.	16cc\JJ)	.	.
8FFF'/L	8FF'/L	[	8d\L 8A\ 8F'\	8dd\L	.	8F\	.	[	8A/	.	[	8d/	.	[	8dd\	e-	[
8GGG'/J	8GG'/J	.	8d\J 8G\ 8D'\	8b-'\J	.	8D\	.	.	8G/	.	.	8d/	.	.	8b-\	-chem	.
=34	=34	=34	=34	=34	=34	=34	=34	=34	=34	=34	=34	=34	=34	=34	=34	=34	=34
[2AAA/	[2AA/	.	4.c#X\ 4.A\ 4.E\	(8a/	.	4.E\	.	.	(8E/	.	.	(8c#X/	.	.	(8a/	w ci-	.
.	.	.	.	4ee\	.	.	.	.	4c#X\)	.	.	4a/)	.	.	4ee\)	.	.
.	.	.	8c#\ 8A\	8cc#X/ 8e/)	.	8A\	.	.	8c#\	.	.	8e/	.	.	8cc#X\	-chy	.
=35	=35	=35	=35	=35	=35	=35	=35	=35	=35	=35	=35	=35	=35	=35	=35	=35	=35
!	!	!	!	!	!	!	!	!	!	!	!	!	!	!	!	!	!LO:HP:b
4AAA/]	4AA/]	>	[2c#X\ [2A\	[2ee\ [2a\	>	[2A\	.	>]	[2c#X\	.	>]	[2a/	.	>]	[2ee\	gaj:	>]
(16GGG/LL	(16GG/LL	.	.	.	.	.	.	.	.	.	.	.	.	.	.	.	.
16AAA/	16AA/	.	.	.	.	.	.	.	.	.	.	.	.	.	.	.	.
16GGG/	16GG/	.	.	.	.	.	.	.	.	.	.	.	.	.	.	.	.
16EEE/JJ	16EE/JJ	]	.	.	]	.	.	.	.	.	.	.	.	.	.	.	.
!!LO:LB:g=original
=36	=36	=36	=36	=36	=36	=36	=36	=36	=36	=36	=36	=36	=36	=36	=36	=36	=36
16GGG/LL	16GG/LL	.	2c#\] 2A\]	2ee\] 2a\]	.	4A\]	.	.	4c#X\]	.	.	2a/_	.	.	2ee\_	.	.
16AAA/	16AA/	.	.	.	.	.	.	.	.	.	.	.	.	.	.	.	.
16GGG/	16GG/	.	.	.	.	.	.	.	.	.	.	.	.	.	.	.	.
16EEE/JJ	16EE/JJ	.	.	.	.	.	.	.	.	.	.	.	.	.	.	.	.
16GGG/LL	16GG/LL	.	.	.	.	4r	.	.	4r	.	.	.	.	.	.	.	.
16AAA/	16AA/	.	.	.	.	.	.	.	.	.	.	.	.	.	.	.	.
16GGG/	16GG/	.	.	.	.	.	.	.	.	.	.	.	.	.	.	.	.
16EEE/JJ	16EE/JJ	.	.	.	.	.	.	.	.	.	.	.	.	.	.	.	.
=37	=37	=37	=37	=37	=37	=37	=37	=37	=37	=37	=37	=37	=37	=37	=37	=37	=37
8AAA/)	8AA/)	.	16r	16r	.	2r	.	.	2r	.	.	4a/]	.	.	4ee\]	.	.
*X8ba	*	*	*clefG2	*	*	*	*	*	*	*	*	*	*	*	*	*	*
!	!	!	!	!	!LO:DY:rj	!	!	!	!	!	!	!	!	!	!	!	!
.	.	.	(16e/LL	(16ee\LL	pp	.	.	.	.	.	.	.	.	.	.	.	.
8r	8r	.	16f/	16ff\	.	.	.	.	.	.	.	.	.	.	.	.	.
.	.	.	16g/JJ	16gg\JJ	.	.	.	.	.	.	.	.	.	.	.	.	.
4r	4r	.	16a/LL	16aa\LL	.	.	.	.	.	.	.	4r	.	.	4r	.	.
.	.	.	16b-/	16bb-\	.	.	.	.	.	.	.	.	.	.	.	.	.
.	.	.	16bn/	16bbn\	.	.	.	.	.	.	.	.	.	.	.	.	.
.	.	.	16cc#X/JJ)	16ccc#X\JJ)	.	.	.	.	.	.	.	.	.	.	.	.	.
=38	=38	=38	=38	=38	=38	=38	=38	=38	=38	=38	=38	=38	=38	=38	=38	=38	=38
*	*	*	*	*	*	*	*	*	*^	*	*	*	*	*	*	*	*
*	*	*	*	*	*	*	*	*	*	*	*	*above	*	*	*	*	*	*
!	!	!LO:DY:rj	!	!	!	!	!	!LO:DY:rj	!	!	!	!LO:DY:rj	!	!	!	!	!	!
4.D/ 4.DD/	4.A\ 4.F\	pp <	(16dd\LL	(16ddd\LL	.	[2D\	.	pp < [[	[2A/	[2F\	Mat-	pp	2r	.	.	2r	.	.
.	.	.	16ccn\J	16cccn\J	.	.	.	.	.	.	.	.	.	.	.	.	.	.
!	!	!	!	!	!	!	!	!	!	!	!	!LO:HP:a	!	!	!	!	!	!
.	.	.	8a\J)	8aa\J)	.	.	.	.	.	.	.	<	.	.	.	.	.	.
.	.	.	8b-X'\L	8bb-X'\L	.	.	.	.	.	.	.	.	.	.	.	.	.	.
8D/ 8DD/	8A\ 8F\	[	8dd'\J	8ddd'\J	.	.	.	.	.	.	.	.	.	.	.	.	.	.
=39	=39	=39	=39	=39	=39	=39	=39	=39	=39	=39	=39	=39	=39	=39	=39	=39	=39	=39
4D/ 4DD/	4A\ 4F\	.	8cc'\	8ccc'\	.	4D\]	.	.	4A/]	4F\]	.	.	2r	.	.	2r	.	.
.	.	.	4a^^/	4aa^^\	.	.	.	.	.	.	.	.	.	.	.	.	.	.
4D/ 4DD/	4A\ 4F\	.	.	.	.	4D\	.	.	4A/	4F\	-ko	[	.	.	.	.	.	.
.	.	.	8r	8r	.	.	.	.	.	.	.	.	.	.	.	.	.	.
=40	=40	=40	=40	=40	=40	=40	=40	=40	=40	=40	=40	=40	=40	=40	=40	=40	=40	=40
(2GG/ 2GGG/	(2B-\ 2G\ 2D\	>	(16g/LL	(16gg\LL	.	2D/ 2GG/	.	[[	2B-/	2G\	Bos-	.	2r	.	.	2r	.	.
.	.	.	16f/J)	16ff\J	.	.	.	.	.	.	.	.	.	.	.	.	.	.
.	.	.	8e'/J	8ee\J)	.	.	.	.	.	.	.	.	.	.	.	.	.	.
.	.	.	8f'/L	8ff'\L	.	.	.	.	.	.	.	>	.	.	.	.	.	.
.	.	.	8g'/J	8gg'\J	.	.	.	.	.	.	.	.	.	.	.	.	.	.
=41	=41	=41	=41	=41	=41	=41	=41	=41	=41	=41	=41	=41	=41	=41	=41	=41	=41	=41
*	*	*	*	*	*	*^	*	*	*	*	*	*	*	*	*	*	*	*
4DD/)	4A\ 4F\ 4D\)	]	8e'/	8ee'\	.	2D/	2D\	.	.	2A/	2F\	-ka	]	2r	.	.	2r	.	.
.	.	.	4d^^/	4dd^^\	.	.	.	.	.	.	.	.	.	.	.	.	.	.	.
(16FF/LL	(16F\LL	.	.	.	.	.	.	.	>	.	.	.	.	.	.	.	.	.	.
16EE/J	16E\J	.	.	.	.	.	.	.	.	.	.	.	.	.	.	.	.	.	.
8DD'/J)	8D\J)	.	8r	8r	.	.	.	.	.	.	.	.	.	.	.	.	.	.	.
=42	=42	=42	=42	=42	=42	=42	=42	=42	=42	=42	=42	=42	=42	=42	=42	=42	=42	=42	=42
!	!	!	!	!	!	!	!	!	!	!	!	!	!LO:DY:a	!	!	!	!	!	!
4.DD/	4.A\ 4.F\ 4.D\	<	(16ff\LL	(16fff\LL	.	(2D/	[2D\	.	]	[2A/	[2F\	Mat-	<	2r	.	.	2r	.	.
.	.	.	16ee\J	16eee\J	.	.	.	.	<	.	.	.	.	.	.	.	.	.	.
.	.	.	8dd\J)	8ddd\J)	.	.	.	.	.	.	.	.	.	.	.	.	.	.	.
.	.	.	8a'/L	8aa'\L	.	.	.	.	.	.	.	.	.	.	.	.	.	.	.
8DD/	8A\ 8F\ 8D\	[	8b-/J	8bb-'\J	.	.	.	.	[[	.	.	.	[[	.	.	.	.	.	.
!!LO:PB:g=original
=43	=43	=43	=43	=43	=43	=43	=43	=43	=43	=43	=43	=43	=43	=43	=43	=43	=43	=43	=43
!	!	!	!	!	!	!	!LO:TX:t=P:problem=brak zakończenia łuków	!	!	!	!	!	!	!	!	!	!	!	!
4DD/	4A\ 4F\ 4D\	.	(16a/LL	(16aa\LL	.	4D/)	4D\]	.	[	4A/]	4F\]	.	.	2r	.	.	2r	.	.
.	.	.	16g/J	16gg\J	.	.	.	.	.	.	.	.	.	.	.	.	.	.	.
.	.	.	8f/J)	8ff\J)	.	.	.	.	.	.	.	.	.	.	.	.	.	.	.
4DD/	4A\ 4F\ 4D\	.	8e'/L	8ee'\L	.	4D/	4D\	.	.	4A/	4F\	-ko	.	.	.	.	.	.	.
.	.	.	8f'/J	8ff'\J	.	.	.	.	.	.	.	.	.	.	.	.	.	.	.
=44	=44	=44	=44	=44	=44	=44	=44	=44	=44	=44	=44	=44	=44	=44	=44	=44	=44	=44	=44
*	*	*	*	*	*	*	*	*	*above	*	*	*	*	*	*	*	*	*	*
(2GG/ 2GGG/	(2B-\ 2G\ 2D\	.	(16b-/LL	(16bb-\LL	.	2D/	2GG\	.	.	2B-/	2G\	Bo-	.	2r	.	.	2r	.	.
!	!	!	!	!	!	!	!	!	!LO:HP:a	!	!	!	!	!	!	!	!	!	!
.	.	>	16a/J	16aa\J	.	.	.	.	>	.	.	.	.	.	.	.	.	.	.
.	.	.	8b-/J)	8bb-\J)	.	.	.	.	.	.	.	.	>	.	.	.	.	.	.
.	.	.	8dd'\L	8ddd'\L	.	.	.	.	.	.	.	.	.	.	.	.	.	.	.
.	.	.	(16cc\L	(16ccc\L	.	.	.	.	.	.	.	.	.	.	.	.	.	.	.
.	.	.	16b-\JJ)	16bb-\JJ)	.	.	.	.	]]	.	.	.	.	.	.	.	.	.	.
=45	=45	=45	=45	=45	=45	=45	=45	=45	=45	=45	=45	=45	=45	=45	=45	=45	=45	=45	=45
2DD/)	2A\ 2F\ 2D\)	]	8dd'\	8ddd'\	.	2F/	2D\	.	.	2A/	2A\	-ska	]	2r	.	.	2r	.	.
.	.	.	4a^^/	4aa^^\	.	.	.	.	.	.	.	.	.	.	.	.	.	.	.
.	.	.	(16g/LL	(16gg\LL	.	.	.	.	.	.	.	.	.	.	.	.	.	.	.
.	.	.	16a/JJ	16aa\JJ	.	.	.	.	.	.	.	.	.	.	.	.	.	.	.
=46	=46	=46	=46	=46	=46	=46	=46	=46	=46	=46	=46	=46	=46	=46	=46	=46	=46	=46	=46
(2BB-/ 2BBB-/	(2d\ 2B-\ 2F\	<	8b-/)	8bb-\)	.	(2F/	(2BB-\	.	.	(2d/	[2B-\	Daj	.	2r	.	.	2r	.	.
.	.	.	(4f/	(4ff\	<	.	.	.	<	.	.	.	<	.	.	.	.	.	.
.	.	.	16g/LL	16gg\LL	.	.	.	.	.	.	.	.	.	.	.	.	.	.	.
.	.	[[	16a/JJ)	16aa\JJ)	[	.	.	.	[	.	.	.	[[	.	.	.	.	.	.
=47	=47	=47	=47	=47	=47	=47	=47	=47	=47	=47	=47	=47	=47	=47	=47	=47	=47	=47	=47
4E-X/ 4EE-X/)	4e-X\ 4B-\ 4G\)	.	(<16g/LL	(16gg\LL	.	4G/)	4E-X\)	.	] <	4e-X/)	4B-\]	.	>	2r	.	.	2r	.	.
.	.	>	16a/	16aa\	.	.	.	.	.	.	.	.	.	.	.	.	.	.	.
.	.	.	16b-/	16bb-\	.	.	.	.	.	.	.	.	.	.	.	.	.	.	.
.	.	.	16cc/JJ	16ccc\JJ	.	.	.	.	.	.	.	.	.	.	.	.	.	.	.
4BB-/ 4BBB-/	4d\ 4B-\ 4F\	]]	8dd\L)	8ddd\L)	>	4F/	4BB-\	.	>	4d/	4B-\	nam,	]	.	.	.	.	.	.
.	.	.	(16cc\L	(16ccc\L	.	.	.	.	.	.	.	.	.	.	.	.	.	.	.
.	.	.	16b-\JJ	16bb-\JJ	]	.	.	.	]]	.	.	.	.	.	.	.	.	.	.
=48	=48	=48	=48	=48	=48	=48	=48	=48	=48	=48	=48	=48	=48	=48	=48	=48	=48	=48	=48
(2FF/	(2c\ 2A\ 2F\	<[	8cc\)	8ccc\)	<	[2F/	(2F\	.	.	(2c/	(2A\	daj.	<	2r	.	.	2r	.	.
!	!	!	!	!	!	!	!	!	!LO:HP:b	!	!	!	!	!	!	!	!	!	!
.	.	.	4ff^\	4fff^\	[[	.	.	.	<	.	.	.	.	.	.	.	.	.	.
.	.	.	8ee-X'\	8eee-X'\	.	.	.	.	[[	.	.	.	[[	.	.	.	.	.	.
=49	=49	=49	=49	=49	=49	=49	=49	=49	=49	=49	=49	=49	=49	=49	=49	=49	=49	=49	=49
4BB-/ 4BBB-/	4d\ 4B-\ 4F\	>	8dd'\L	8ddd'\L	.	2F/]	4BB-\	.	.	4d/	2B-\)	.	.	2r	.	.	2r	.	.
.	.	.	(16cc\L	(16ccc\L	>	.	.	.	>	.	.	.	>	.	.	.	.	.	.
.	.	.	16b-\JJ)	16bb-\JJ)	.	.	.	.	.	.	.	.	.	.	.	.	.	.	.
4D/ 4DD/)	4B-\ 4F\)	]	8f'/L	8ff'\L	.	.	4D\)	.	.	4B-/)	.	.	.	.	.	.	.	.	.
.	.	.	8g'/J	8gg'\J	]	.	.	.	]]	.	.	.	]]	.	.	.	.	.	.
!!pagebreak:original
=50	=50	=50	=50	=50	=50	=50	=50	=50	=50	=50	=50	=50	=50	=50	=50	=50	=50	=50	=50
!	!	!	!	!	!	!	!	!	!	!	!	!	!LO:DY:a	!	!	!	!	!	!
2D/ 2DD/	(4.A\ 4.F#X\	<	(16a/LL	(16aa\LL	.	4.F#X/	4.D\	.	.	4.A/	4.A\	Daj	<	2r	.	.	2r	.	.
.	.	.	16g/J	16gg\J	.	.	.	.	.	.	.	.	.	.	.	.	.	.	.
.	.	.	8f#X/J)	8ff#X\J)	.	.	.	.	.	.	.	.	.	.	.	.	.	.	.
.	.	.	8a'/L	8aa'\L	.	.	.	.	.	.	.	.	.	.	.	.	.	.	.
.	8B-\ 8G\)	[	[8dd/J	[8ddd\J	.	8D/	8D\	.	.	8B-/	8G\	w ro-	[	.	.	.	.	.	.
=51	=51	=51	=51	=51	=51	=51	=51	=51	=51	=51	=51	=51	=51	=51	=51	=51	=51	=51	=51
(8DD/L	(8c\L 8A\ 8D\	.	16dd/LL]	16ddd\LL]	.	8D/	8D\	.	.	8c/	8A\	-dzin-	.	2r	.	.	2r	.	.
.	.	.	(16cc/	(16ccc\	.	.	.	.	.	.	.	.	.	.	.	.	.	.	.
8GG/ 8GGG/	8d\ 8B-\ 8D\	>	16b-/	16bb-\	.	8D/	8GG\	.	.	8d/	8B-\	-ny	.	.	.	.	.	.	.
.	.	.	16a/JJ	16aa\JJ	.	.	.	.	.	.	.	.	.	.	.	.	.	.	.
!	!	!	!	!	!	!	!	!	!	!	!	!	!LO:DY:a	!	!	!	!	!	!
8C/ 8CC/	8c\ 8A\ 8E-X\	.	16g/LL	16gg\LL	.	8E-X/	8C\	.	.	8c/	8A\	wró-	>	.	.	.	.	.	.
.	.	.	16a/	16aa\	.	.	.	.	.	.	.	.	.	.	.	.	.	.	.
8D/J 8DD/)	8B-\J 8G\)	]	16b-/	16bb-\	.	8D/	8D\	.	.	8B-/	8G\	-cić	.	.	.	.	.	.	.
.	.	.	16cc/JJ)	16ccc\JJ)	.	.	.	.	.	.	.	.	.	.	.	.	.	.	.
*	*	*	*	*	*	*v	*v	*	*	*	*	*	*	*	*	*	*	*	*
*	*	*	*	*	*	*	*	*	*v	*v	*	*	*	*	*	*	*	*
=52	=52	=52	=52	=52	=52	=52	=52	=52	=52	=52	=52	=52	=52	=52	=52	=52	=52
*	*	*	*	*8va	*	*	*	*	*	*	*	*	*	*	*	*	*
*	*	*	*	*	*	*^	*	*	*^	*	*	*	*	*	*	*	*
(2D/ 2DD/	(2A\ 2F#X\	.	(16dd\LL	(16ddd\LL	.	(2D/	2D\	.	.	(2A/	(2F#X\	kraj.	]	2r	.	.	2r	.	.
.	.	.	16een\J	16eeen\J	.	.	.	.	.	.	.	.	.	.	.	.	.	.	.
.	.	.	8ff#X\J)	8fff#X\J)	.	.	.	.	.	.	.	.	.	.	.	.	.	.	.
.	.	.	8aa'\L	8aaa'\L	.	.	.	.	.	.	.	.	.	.	.	.	.	.	.
.	.	.	8ff#'\J	8fff#'\J	.	.	.	.	.	.	.	.	.	.	.	.	.	.	.
=53	=53	=53	=53	=53	=53	=53	=53	=53	=53	=53	=53	=53	=53	=53	=53	=53	=53	=53	=53
4GG/ 4GGG/)	4G\ 4D\ 4BB-\)	.	8gg'\	8ggg'\	.	4GG/)	4GG\	.	.	4G/)	4G\)	.	.	2r	.	.	2r	.	.
.	.	.	4bb-\	4bbb-\	.	.	.	.	.	.	.	.	.	.	.	.	.	.	.
4r	4r	.	.	.	.	4rc	4rEEyy	.	.	4r	4ryy	.	.	.	.	.	.	.	.
.	.	.	[8bb-\	[8bbb-\	.	.	.	.	.	.	.	.	.	.	.	.	.	.	.
*	*	*	*	*	*	*v	*v	*	*	*	*	*	*	*	*	*	*	*	*
*	*	*	*	*	*	*	*	*	*v	*v	*	*	*	*	*	*	*	*
=54	=54	=54	=54	=54	=54	=54	=54	=54	=54	=54	=54	=54	=54	=54	=54	=54	=54
*	*^	*	*	*	*	*	*	*	*	*	*	*	*	*	*	*	*
2GG/ 2GGG/	(4.En/	2D\ 2BB-\	<	(16bb-\LL]	(16bbb-\LL]	.	4.En\	Daj	<	2r	.	.	2r	.	.	2r	.	.
.	.	.	.	16aa\J	16aaa\J	.	.	.	.	.	.	.	.	.	.	.	.	.
.	.	.	.	8gg\J)	8ggg\J)	.	.	.	.	.	.	.	.	.	.	.	.	.
.	.	.	.	8bb-'\L	8bbb-'\L	.	.	.	.	.	.	.	.	.	.	.	.	.
.	8F/)	.	[	8aa'\J	8aaa'\J	.	8F\	w ro-	[[	.	.	.	.	.	.	.	.	.
=55	=55	=55	=55	=55	=55	=55	=55	=55	=55	=55	=55	=55	=55	=55	=55	=55	=55	=55
(4.EE/ 4.EEE/	8G/L	2D\ 2BB-\	.	8gg'\	8ggg'\	.	8G\	-dzin-	.	2r	.	.	2r	.	.	2r	.	.
.	(<8A/	.	.	4dd^\	4ddd^\	.	8A\	-ny	.	.	.	.	.	.	.	.	.	.
!	!	!	!	!	!	!	!	!	!a	!	!	!	!	!	!	!	!	!
.	8G/	.	>	.	.	.	8G\	wró-	>	.	.	.	.	.	.	.	.	.
*	*	*	*	*	*X8va	*	*	*	*	*	*	*	*	*	*	*	*	*
8FF/ 8FFF/)	8F/J)	.	.	8r	8r	.	8F\	-cić	]]	.	.	.	.	.	.	.	.	.
*	*v	*v	*	*	*	*	*	*	*	*	*	*	*	*	*	*	*	*
=56	=56	=56	=56	=56	=56	=56	=56	=56	=56	=56	=56	=56	=56	=56	=56	=56	=56
2GG/ 2GGG/	2E\ 2D\ 2BB-\	]	(16dd\LL	(16ddd\LL	.	[2E\	kraj.	.	2r	.	.	2r	.	.	2r	.	.
.	.	.	16cc\J	16ccc\J	.	.	.	.	.	.	.	.	.	.	.	.	.
.	.	.	8a\J)	8aa\J)	.	.	.	.	.	.	.	.	.	.	.	.	.
.	.	.	8b-'\L	8bb-'\L	.	.	.	.	.	.	.	.	.	.	.	.	.
.	.	.	8dd'\J	8ddd'\J	.	.	.	.	.	.	.	.	.	.	.	.	.
!!LO:PB:g=original
=57	=57	=57	=57	=57	=57	=57	=57	=57	=57	=57	=57	=57	=57	=57	=57	=57	=57
2AA/ 2AAA/	2E\ 2C#X\	.	8cc#X'\L	8ccc#X'\L	.	(2E\]	.	.	2r	.	.	2r	.	.	2r	.	.
.	.	.	[8a\J	[8aa\J	.	.	.	.	.	.	.	.	.	.	.	.	.
.	.	.	16a\LL]	16aa\LL]	>	.	.	.	.	.	.	.	.	.	.	.	.
.	.	.	(16bn\	(16bbn\	.	.	.	.	.	.	.	.	.	.	.	.	.
.	.	.	16cc#\	16ccc#\	.	.	.	.	.	.	.	.	.	.	.	.	.
.	.	.	16ee\JJ)	16eee\JJ)	]]	.	.	.	.	.	.	.	.	.	.	.	.
=58	=58	=58	=58	=58	=58	=58	=58	=58	=58	=58	=58	=58	=58	=58	=58	=58	=58
*	*	*	*	*8va	*	*	*	*	*	*	*	*	*	*	*	*	*
!	!	!LO:DY:rj	!	!	!LO:DY:rj	!	!	!	!	!	!	!	!	!	!	!	!
(16DD/LL	(16D/LL	pp	8ff\L 8dd\ 8a'\	8fff\L 8ddd\ 8aa'\	pp	4D\)	.	.	2r	.	.	2r	.	.	2r	.	.
16CCn/J	16Cn/J	.	.	.	.	.	.	.	.	.	.	.	.	.	.	.	.
8AAA/J)	8AA/J)	.	8ff\ 8dd\ 8a'\	8fff\ 8ddd\ 8aa'\	.	.	.	.	.	.	.	.	.	.	.	.	.
8BBB-'/L	8BB-'/L	.	8ff\ 8dd\ 8a'\	8fff\ 8ddd\ 8aa'\	.	4r	.	.	.	.	.	.	.	.	.	.	.
8DD'/J	8D'/J	.	8ff\J 8dd\ 8a'\	8fff\J 8ddd\ 8aa'\	.	.	.	.	.	.	.	.	.	.	.	.	.
=59	=59	=59	=59	=59	=59	=59	=59	=59	=59	=59	=59	=59	=59	=59	=59	=59	=59
8CC'/	8C'/	.	8ff/L 8dd/ 8a'/	8fff\L 8ddd\ 8aa\	.	2r	.	.	2r	.	.	2r	.	.	2r	.	.
*	*	*	*	*X8va	*	*	*	*	*	*	*	*	*	*	*	*	*
4AAA^^/	4AA^^/	.	8dd/ 8a/ 8f'/	8ddd\ 8aa\ 8ff'\	.	.	.	.	.	.	.	.	.	.	.	.	.
.	.	.	8dd/ 8a/ 8f'/	8ddd\ 8aa\ 8ff'\	.	.	.	.	.	.	.	.	.	.	.	.	.
8r	8r	.	8dd/J 8a/ 8f'/	8ddd\J 8aa\ 8ff'\	.	.	.	.	.	.	.	.	.	.	.	.	.
=60	=60	=60	=60	=60	=60	=60	=60	=60	=60	=60	=60	=60	=60	=60	=60	=60	=60
*8ba	*	*	*	*	*	*	*	*	*	*	*	*	*	*	*	*	*
(16GGG/LL	(16GG/LL	.	8dd/L 8b-/ 8g'/	8ddd\L 8bb-\ 8gg'\	.	2r	.	.	2r	.	.	2r	.	.	2r	.	.
16FFF/J	16FF/J	.	.	.	.	.	.	.	.	.	.	.	.	.	.	.	.
8EEE/J)	8EE/J)	.	8dd/ 8b-/ 8g'/	8ddd\ 8bb-\ 8gg'\	.	.	.	.	.	.	.	.	.	.	.	.	.
8FFF'/L	8FF'/L	.	8dd/ 8a/ 8f'/	8ddd\ 8aa\ 8ff'\	.	.	.	.	.	.	.	.	.	.	.	.	.
8GGG'/J	8GG'/J	.	8dd/J 8b-/ 8e'/	8ddd\J 8bb-\ 8ee'\	.	.	.	.	.	.	.	.	.	.	.	.	.
=61	=61	=61	=61	=61	=61	=61	=61	=61	=61	=61	=61	=61	=61	=61	=61	=61	=61
8EEE'/	8EE'/	.	8dd/L 8a/ 8f'/	8ddd\L 8aa\ 8ff'\	.	2r	.	.	2r	.	.	2r	.	.	2r	.	.
[4.DDD^^/	[4.DD^^/	.	8dd/ 8a/ 8f'/	8ddd\ 8aa\ 8ff'\	.	.	.	.	.	.	.	.	.	.	.	.	.
.	.	.	8dd/ 8a/ 8f'/	8ddd\ 8aa\ 8ff'\	.	.	.	.	.	.	.	.	.	.	.	.	.
.	.	.	8dd/J 8a/ 8f'/	8ddd\J 8aa\ 8ff'\	.	.	.	.	.	.	.	.	.	.	.	.	.
=62	=62	=62	=62	=62	=62	=62	=62	=62	=62	=62	=62	=62	=62	=62	=62	=62	=62
2DDD/_	2DD/_	.	8dd/L 8a/ 8f'/	8ddd\L 8aa\ 8ff'\	.	2r	.	.	2r	.	.	2r	.	.	2r	.	.
.	.	.	8a/ 8g/ 8e'/	8aa\ 8gg\ 8ee'\	.	.	.	.	.	.	.	.	.	.	.	.	.
.	.	.	8b-/ 8f/ 8d'/	8bb-\ 8ff\ 8dd'\	.	.	.	.	.	.	.	.	.	.	.	.	.
.	.	.	8a/J 8e/ 8c'/	8aa\J 8ee\ 8cc'\	.	.	.	.	.	.	.	.	.	.	.	.	.
=63	=63	=63	=63	=63	=63	=63	=63	=63	=63	=63	=63	=63	=63	=63	=63	=63	=63
2DDD/]	2DD/]	.	8g/L 8d/ 8B-'/	8gg\L 8dd\ 8b-'\	.	2r	.	.	2r	.	.	2r	.	.	2r	.	.
.	.	.	8e/ 8d/ 8B-'/	8ee\ 8dd\ 8b-'\	.	.	.	.	.	.	.	.	.	.	.	.	.
.	.	.	8f/ 8c/ 8A'/	8ff\ 8cc\ 8a'\	.	.	.	.	.	.	.	.	.	.	.	.	.
.	.	.	8e/J 8B-/ 8G'/	8ee\J 8b-\ 8g'\	.	.	.	.	.	.	.	.	.	.	.	.	.
*X8ba	*	*	*	*	*	*	*	*	*	*	*	*	*	*	*	*	*
!!LO:LB:g=original
=64	=64	=64	=64	=64	=64	=64	=64	=64	=64	=64	=64	=64	=64	=64	=64	=64	=64
!	!	!	!	!	!	!	!	!LO:DY:rj	!	!	!LO:DY:rj	!	!	!LO:DY:rj	!	!	!LO:DY:rj
8DD'/	8D'\L	.	8d/L 8A/ 8F'/	8dd\L 8a\ 8f'\	.	8D\	.	pp	8F/	.	pp	8A/	.	pp	8d/	Kurz	pp
8r	8D'\	.	8e/ 8c/ 8A'/	8ee\ 8cc\ 8a'\	.	8D\	.	.	8A/	.	.	8c/	.	.	8e/	po	.
(16DD/LL	8D'\	.	8f/ 8d/ 8A'/	8ff\ 8dd\ 8a'\	.	8D\	.	.	8A/	.	.	8d/	.	.	8f/	dro-	.
16CC/	.	.	.	.	.	.	.	.	.	.	.	.	.	.	.	.	.
16DD/	8D'\J	.	8a/J 8f'/	8aa\J 8ff'\	.	8D\	.	.	8A/	.	.	8f/	.	.	8a/	-dze	.
16AAA/JJ	.	.	.	.	.	.	.	.	.	.	.	.	.	.	.	.	.
=65	=65	=65	=65	=65	=65	=65	=65	=65	=65	=65	=65	=65	=65	=65	=65	=65	=65
8DD/)	8A\L 8D'\	.	(16cc/LL 16a/	(16ccc\LL 16aa\	.	8D\	.	.	8A/	.	.	(16a/LL	.	.	(16cc\LL	wa-	.
.	.	.	16b-/J 16g/	16bb-\J 16gg\	.	.	.	.	.	.	.	16g/JJ)	.	.	16b-\JJ)	.	.
8r	8A\ 8D'\	.	8a/J 8f/)	8aa\J 8ff\)	.	8D\	.	.	8A/	.	.	8f/	.	.	8a/	-li	.
(16DD/LL	8A\ 8D'\	.	8dd/'L 8f'/	8ddd\L 8ff'\	.	8D\	.	.	8A/	.	.	8f/	.	.	8dd\	chmu-	.
16CC/	.	.	.	.	.	.	.	.	.	.	.	.	.	.	.	.	.
16DD/	8A\J 8D'\	.	8cc/'J 8f'/	8ccc\J 8ff'\	.	8D\	.	.	8A/	.	.	8f/	.	.	8cc\	-rą,	.
16AAA/JJ	.	.	.	.	.	.	.	.	.	.	.	.	.	.	.	.	.
=66	=66	=66	=66	=66	=66	=66	=66	=66	=66	=66	=66	=66	=66	=66	=66	=66	=66
8DD/)	8A\L 8D'\	.	(16cc/LL 16f/	(16ccc\LL 16ff\	.	8D\	.	.	8A/	.	.	8f/	.	.	(16cc\LL	Przesz-	.
.	.	.	16b-/J	16bb-\J	.	.	.	.	.	.	.	.	.	.	16b-\JJ)	.	.
8r	8A\ 8D'\	.	8a/J)	8aa\J)	.	8D\	.	.	8A/	.	.	8f/	.	.	8a/	-li	.
(16DD/LL	8G\ 8D'\	.	8b-/L 8e'/	8bb-\L 8ee'\	.	8D\	.	.	8G/	.	.	8e/	.	.	8b-/	la-	.
16CC/	.	.	.	.	.	.	.	.	.	.	.	.	.	.	.	.	.
16DD/	8B-\J 8D'\	.	8g/J 8e'/	8gg\J 8ee'\	.	8D\	.	.	8B-/	.	.	8e/	.	.	8g/	-sem	.
16AAA/JJ	.	.	.	.	.	.	.	.	.	.	.	.	.	.	.	.	.
=67	=67	=67	=67	=67	=67	=67	=67	=67	=67	=67	=67	=67	=67	=67	=67	=67	=67
16DD/LL	8A\L 8D'\	.	8a/L 8f'/	8aa\L 8ff'\	.	8D\	.	.	8A/	.	.	8f/	.	.	8a/	już	.
16CC/	.	.	.	.	.	.	.	.	.	.	.	.	.	.	.	.	.
16DD/	8A\ 8D'\	.	(16g/L 16e/	(16gg\L 16ee\	.	8D\	.	.	8A/	.	.	(16e/LL	.	.	(16g/LL	za	.
16AAA/JJ	.	.	16f/JJ 16d/)	16ff\JJ 16dd\)	.	.	.	.	.	.	.	16d/JJ)	.	.	16f/JJ)	.	.
16DD/LL	8G\ 8D'\	.	8e'/L	8ee'\L	.	8D\	.	.	8G/	.	.	8d/	.	.	8e/	gó-	.
16CC/	.	.	.	.	.	.	.	.	.	.	.	.	.	.	.	.	.
16DD/	8F\J 8D'\	.	8d'/J	8dd'\J	.	8D\	.	.	8F/	.	.	8d/	.	.	8d/	-rą,	.
16AAA/JJ	.	.	.	.	.	.	.	.	.	.	.	.	.	.	.	.	.
=68	=68	=68	=68	=68	=68	=68	=68	=68	=68	=68	=68	=68	=68	=68	=68	=68	=68
8DD/)	4B-\ 4D\	.	4e/ 4d/	4ee\ 4dd\ 4b-\	.	4D\	.	.	4B-\	.	.	4d/	.	.	4e/	już	.
8r	.	.	.	.	.	.	.	.	.	.	.	.	.	.	.	.	.
4r	4A\ 4D\	.	4f/ 4c/	4ff\ 4cc\ 4a\	.	4D\	.	.	4A/	.	.	4c/	.	.	4f/	za	.
=69	=69	=69	=69	=69	=69	=69	=69	=69	=69	=69	=69	=69	=69	=69	=69	=69	=69
4r	4B-\ 4G\ 4D\	.	4g/	4gg\ 4b-\	.	4D\	.	.	4G/	.	.	4B-/	.	.	4g/	gó-	.
8r	4A\ 4F\ 4D\	.	4a/	4aa\	.	4D\	.	.	4F/	.	.	4A/	.	.	4a/	-rą	.
(16DD/LL	.	.	.	.	.	.	.	.	.	.	.	.	.	.	.	.	.
16CC/JJ)	.	.	.	.	.	.	.	.	.	.	.	.	.	.	.	.	.
!!LO:PB:g=original
=70	=70	=70	=70	=70	=70	=70	=70	=70	=70	=70	=70	=70	=70	=70	=70	=70	=70
!	!LO:TX:b:i:t=sempre	!	!	!LO:TX:b:i:t=sempre	!	!	!	!	!	!	!	!	!	!	!	!	!
(16BBB-/LL	(16BB-/LL	.	4.b-/ 4.f/ 4.d/	4.bb-\ 4.ff\ 4.dd\	.	4.BB-/	.	.	4.F/	.	.	4.d/	.	.	4.b-\	A	.
16AAA/J	16AA/J	.	.	.	.	.	.	.	.	.	.	.	.	.	.	.	.
8FFF/J)	8FF/J)	.	.	.	.	.	.	.	.	.	.	.	.	.	.	.	.
8GGG'/L	8GG'/L	.	.	.	.	.	.	.	.	.	.	.	.	.	.	.	.
8BBB-'/J	8BB-'/J	pp	8b-/ 8f/ 8d/	8bb-\ 8ff\ 8dd\	pp	8BB-/	.	.	8F/	.	.	8d/	.	.	8b-\	gdzieś	.
=71	=71	=71	=71	=71	=71	=71	=71	=71	=71	=71	=71	=71	=71	=71	=71	=71	=71
*8ba	*	*	*	*	*	*	*	*	*	*	*	*	*	*	*	*	*
4.BBB-/	4.BB-/	.	4.a/ 4.f/ 4.d/	4.aa\ 4.ff\ 4.dd\	.	4.BB-/	.	.	4.F/	.	.	4.d/	.	.	4.a/	zda-	.
8BBB-/	8BB-/	.	8a/ 8f/ 8d/	8aa\ 8ff\ 8dd\	.	8BB-/	.	.	8F/	.	.	8d/	.	.	8a/	-la	.
=72	=72	=72	=72	=72	=72	=72	=72	=72	=72	=72	=72	=72	=72	=72	=72	=72	=72
(16BBB-/LL	(16BB-/LL	.	8f/L 8d'/	8ff\L 8dd'\	.	8BB-/	.	.	8B-\	.	.	8d/	.	.	8f/	wciąż	.
16AAA/J	16AA/J	.	.	.	.	.	.	.	.	.	.	.	.	.	.	.	.
8GGG/J)	8GG/J)	.	8g/J 8d/ 8B-'/	8gg\J 8dd\ 8b-'\	.	8GG/	.	.	8B-\	.	.	8d/	.	.	8g/	po	.
8CC'/L	8C'/L	.	[4e-X/ [>4c/ [4G/	[4ee-X/ [>4cc/ [4g/	.	[4C/	.	.	[4G/	.	.	[4c/	.	.	[4e-X/	le-	.
8GGG'/J	8GG'/J	.	.	.	.	.	.	.	.	.	.	.	.	.	.	.	.
=73	=73	=73	=73	=73	=73	=73	=73	=73	=73	=73	=73	=73	=73	=73	=73	=73	=73
4CC/	4C/	.	4e-/] 4c/] 4G/]	4ee-/] 4cc/] 4g/]	.	4C/]	.	.	4G/]	.	.	4c/]	.	.	4e-/]	.	.
(16BBB-/LL	(16BB-/LL	.	4g/ 4e-X/ 4c/	4gg\ 4ee-X\ 4cc\	.	4BB-/	.	.	4c\	.	.	4e-X/	.	.	4g/	-sie	.
16GGG/J	16GG/J	.	.	.	.	.	.	.	.	.	.	.	.	.	.	.	.
8BBB-/J)	8BB-/J)	.	.	.	.	.	.	.	.	.	.	.	.	.	.	.	.
=74	=74	=74	=74	=74	=74	=74	=74	=74	=74	=74	=74	=74	=74	=74	=74	=74	=74
(16AAA/LL	(16AA/LL	.	4.e-X/ 4.c/	4.ccc\ 4.ee-X\ 4.cc\	.	4.AA/	.	.	4.c\	.	.	4.e-X/	.	.	4.cc\	Wiatr	.
16BBB-/	16BB-/	.	.	.	.	.	.	.	.	.	.	.	.	.	.	.	.
16CC/	16C/	.	.	.	.	.	.	.	.	.	.	.	.	.	.	.	.
16BBB-/JJ	16BB-/JJ	.	.	.	.	.	.	.	.	.	.	.	.	.	.	.	.
16AAA/LL	16AA/LL	.	.	.	.	.	.	.	.	.	.	.	.	.	.	.	.
16GGG/	16GG/	.	.	.	.	.	.	.	.	.	.	.	.	.	.	.	.
16AAA/	16AA/	.	8a/ 8e-/ 8c/	8aa\ 8ee-\ 8cc\	.	8C/	.	.	8c\	.	.	8e-/	.	.	8a/	ku	.
16CC/JJ)	16C/JJ)	.	.	.	.	.	.	.	.	.	.	.	.	.	.	.	.
=75	=75	=75	=75	=75	=75	=75	=75	=75	=75	=75	=75	=75	=75	=75	=75	=75	=75
8EE-X'\L	8E-X'\L	.	4.g/ 4.e-X/ 4.B-/	4.gg\ 4.ee-X\ 4.b-\	.	4.E-X\	.	.	4.B-\	.	.	4.e-X/	.	.	4.g/	wios-	.
(16CC\L	(16C\L	.	.	.	.	.	.	.	.	.	.	.	.	.	.	.	.
16DD\JJ	16D\JJ	.	.	.	.	.	.	.	.	.	.	.	.	.	.	.	.
8EE-\L)	8E-\L)	.	.	.	.	.	.	.	.	.	.	.	.	.	.	.	.
8DD'\J	8D'\J	.	8a/ 8f/ 8d/	8aa\ 8ff\ 8dd\	.	8D\	.	.	8d\	.	.	8f/	.	.	8a/	-ce	.
*X8ba	*	*	*	*	*	*	*	*	*	*	*	*	*	*	*	*	*
=76	=76	=76	=76	=76	=76	=76	=76	=76	=76	=76	=76	=76	=76	=76	=76	=76	=76
8GG/L	8G'\L	.	8b-/L 8g/ 8d'/	8bb-\L 8gg\ 8dd\	.	8G\	.	.	8d\	.	.	8g/	.	.	8b-\	śpiew-	.
8CC/J	8C'\J	.	8cc/J 8g/ 8e-X'/	8ccc\J 8gg\ 8ee-X\	.	8C/	.	.	8e-X\	.	.	8g/	.	.	8cc\	-kę	.
8FF'/L	8F'\L	.	[4a/ [>4f/ [4c/	[4aa\ [4ff\ [4cc\	.	[4F\	.	.	[4c\	.	.	[4f/	.	.	[4a/	nie-	.
(16CC/L	(16C\L	.	.	.	.	.	.	.	.	.	.	.	.	.	.	.	.
16AAA/JJ	16AA\JJ	.	.	.	.	.	.	.	.	.	.	.	.	.	.	.	.
!!LO:LB:g=original
=77	=77	=77	=77	=77	=77	=77	=77	=77	=77	=77	=77	=77	=77	=77	=77	=77	=77
!	!LO:TX:t=P:problem=zakończenie łuku na dole	!	!	!	!	!	!	!	!	!	!	!	!	!	!	!	!
8FFF/L)	8FF/L)	.	4a/] 4f/] 4c/]	4aa\] 4ff\] 4cc\]	.	4F\]	.	.	4c\]	.	.	4f/]	.	.	4a/]	.	.
8FF'/J	8F'/J	.	.	.	.	.	.	.	.	.	.	.	.	.	.	.	.
8DD'/L	8D'/L	.	4f/ 4B-/	4bb-\ 4ff\ 4b-\	.	4D\	.	.	4B-\	.	.	4f/	.	.	4b-\	-sie	.
(16DD/L	(16D/L	.	.	.	.	.	.	.	.	.	.	.	.	.	.	.	.
16CC/JJ)	16C/JJ)	.	.	.	.	.	.	.	.	.	.	.	.	.	.	.	.
=78	=78	=78	=78	=78	=78	=78	=78	=78	=78	=78	=78	=78	=78	=78	=78	=78	=78
*8ba	*	*	*	*	*	*	*	*	*	*	*	*	*	*	*	*	*
(16BBB-/LL	(16BB-/LL	.	2f/ 2d/	(4.ddd\ 4.ff\ 4.dd\	.	2r	.	.	4.d\	Co-	.	2r	.	.	4.dd\	Co-	.
16AAA/	16AA/	.	.	.	.	.	.	.	.	.	.	.	.	.	.	.	.
16BBB-/	16BB-/	.	.	.	.	.	.	.	.	.	.	.	.	.	.	.	.
16FFF/JJ	16FF/JJ	.	.	.	.	.	.	.	.	.	.	.	.	.	.	.	.
16BBB-/LL	16BB-/LL	.	.	.	.	.	.	.	.	.	.	.	.	.	.	.	.
16AAA/	16AA/	.	.	.	.	.	.	.	.	.	.	.	.	.	.	.	.
16BBB-/	16BB-/	.	.	8ccc\ 8cc\)	.	.	.	.	8c\	-raz	.	.	.	.	8cc\	-raz	.
16FFF/JJ	16FF/JJ	.	.	.	.	.	.	.	.	.	.	.	.	.	.	.	.
=79	=79	=79	=79	=79	=79	=79	=79	=79	=79	=79	=79	=79	=79	=79	=79	=79	=79
*	*	*	*^	*^	*	*	*	*	*	*	*	*	*	*	*	*	*
!	!	!	!	!	!	!	!	!	!	!	!	!	!	!	!	!	!	!	!LO:HP:b
2BBB-/)	2BB-/)	.	(8a/L	2f\ 2d\	(8aa/L	2ff\ 2dd\	.	2r	.	.	8A/	cich-	.	2r	.	.	8a/	cich-	>
!	!	!	!	!	!	!	!	!	!	!	!	!	!LO:DY:a	!	!	!	!	!	!
.	.	.	8b-/	.	8bb-/	.	.	.	.	.	8B-\	-szą	>	.	.	.	8b-\	-szą	.
.	.	.	8cc/	.	8ccc/	.	.	.	.	.	8c\	z to-	.	.	.	.	8cc\	z to-	.
.	.	.	8b-/J)	.	8bb-/J)	.	.	.	.	.	8B-\	-nu	]]	.	.	.	8b-\	-nu	]
=80	=80	=80	=80	=80	=80	=80	=80	=80	=80	=80	=80	=80	=80	=80	=80	=80	=80	=80	=80
(16BBB-/LL	(16BB-/LL	.	2g/	[>2d\ [2B-\	2gg/	[>2dd\ [2b-\	.	2r	.	.	(2G/	w ton	.	2r	.	.	(2g/	w ton	.
16AAA/	16AA/	.	.	.	.	.	.	.	.	.	.	.	.	.	.	.	.	.	.
16GGG/	16GG/	.	.	.	.	.	.	.	.	.	.	.	.	.	.	.	.	.	.
16AAA/JJ	16AA/JJ	.	.	.	.	.	.	.	.	.	.	.	.	.	.	.	.	.	.
16BBB-/LL	16BB-/LL	.	.	.	.	.	.	.	.	.	.	.	.	.	.	.	.	.	.
16AAA/	16AA/	.	.	.	.	.	.	.	.	.	.	.	.	.	.	.	.	.	.
16BBB-/	16BB-/	.	.	.	.	.	.	.	.	.	.	.	.	.	.	.	.	.	.
16CC/JJ	16C/JJ	.	.	.	.	.	.	.	.	.	.	.	.	.	.	.	.	.	.
=81	=81	=81	=81	=81	=81	=81	=81	=81	=81	=81	=81	=81	=81	=81	=81	=81	=81	=81	=81
[4DD/	[4D/	.	2f/	2d\] 2B-\]	2ff/	2dd\] 2b-\]	.	2r	.	.	[2F/)	.	.	2r	.	.	[2f/)	.	.
16DD/LL]	16D/LL]	.	.	.	.	.	.	.	.	.	.	.	.	.	.	.	.	.	.
16CC/	16C/	.	.	.	.	.	.	.	.	.	.	.	.	.	.	.	.	.	.
16BBB-/	16BB-/	.	.	.	.	.	.	.	.	.	.	.	.	.	.	.	.	.	.
16AAA/JJ	16AA/JJ	.	.	.	.	.	.	.	.	.	.	.	.	.	.	.	.	.	.
=82	=82	=82	=82	=82	=82	=82	=82	=82	=82	=82	=82	=82	=82	=82	=82	=82	=82	=82	=82
!	!	!	!	!	!	!	!	!	!	!LO:DY:rj	!	!	!	!	!	!LO:DY:rj	!	!	!
8GGG/)	8GG/)	.	(4.f/	2B-\	(4.ff/	2b-\	.	4.F\	Co-	pp	2F/_	.	.	4.f/	Co-	pp	2f/_	.	.
8r	8r	.	.	.	.	.	.	.	.	.	.	.	.	.	.	.	.	.	.
(16GGG/LL	(16GG/LL	.	.	.	.	.	.	.	.	.	.	.	.	.	.	.	.	.	.
16FFF/	16FF/	.	.	.	.	.	.	.	.	.	.	.	.	.	.	.	.	.	.
16GGG/	16GG/	.	8e/)	.	8ee/)	.	.	8E\	-raz	.	.	.	.	8e/	-raz	.	.	.	.
16DDD/JJ	16DD/JJ	.	.	.	.	.	.	.	.	.	.	.	.	.	.	.	.	.	.
*	*	*	*v	*v	*	*	*	*	*	*	*	*	*	*	*	*	*	*	*
*	*	*	*	*v	*v	*	*	*	*	*	*	*	*	*	*	*	*	*
*X8ba	*	*	*	*	*	*	*	*	*	*	*	*	*	*	*	*	*
!!LO:PB:g=original
=83	=83	=83	=83	=83	=83	=83	=83	=83	=83	=83	=83	=83	=83	=83	=83	=83	=83
*8ba	*	*	*	*	*	*	*	*	*	*	*	*	*	*	*	*	*
16GGG/LL	16GG/LL	.	(8B-/L	(8b-\L	.	8BB-/	cich-	.	2F/]	.	.	8B-/	cich-	.	2f/]	.	.
16FFF/	16FF/	.	.	.	.	.	.	.	.	.	.	.	.	.	.	.	.
!	!	!	!	!	!	!	!	!LO:DY:a	!	!	!	!	!	!LO:DY:a	!	!	!
16GGG/	16GG/	.	8c/	8cc\	.	8C/	-szą	>	.	.	.	8c/	-szą	>	.	.	.
16DDD/JJ	16DD/JJ	.	.	.	.	.	.	.	.	.	.	.	.	.	.	.	.
16GGG/LL	16GG/LL	.	8e/	8ee\	.	8E\	z to-	.	.	.	.	8e/	z to-	.	.	.	.
16FFF/	16FF/	.	.	.	.	.	.	.	.	.	.	.	.	.	.	.	.
16GGG/	16GG/	.	8d/J)	8dd\J)	.	8D\	-nu	]	.	.	.	8d/	-nu	]	.	.	.
16DDD/JJ	16DD/JJ	.	.	.	.	.	.	.	.	.	.	.	.	.	.	.	.
=84	=84	=84	=84	=84	=84	=84	=84	=84	=84	=84	=84	=84	=84	=84	=84	=84	=84
8GGG/)	8GG/)	.	[2e/ 2B-/	[2ee\ 2b-\	.	(2BB-/	w ton:	.	[2E/	w ton:	.	(2B-/	w ton:	.	[2e/	w ton:	.
8r	8r	.	.	.	.	.	.	.	.	.	.	.	.	.	.	.	.
(16AAA/LL	(16AA/LL	.	.	.	.	.	.	.	.	.	.	.	.	.	.	.	.
16GGG/	16GG/	.	.	.	.	.	.	.	.	.	.	.	.	.	.	.	.
16FFF/	16FF/	.	.	.	.	.	.	.	.	.	.	.	.	.	.	.	.
16GGG/JJ	16GG/JJ	.	.	.	.	.	.	.	.	.	.	.	.	.	.	.	.
=85	=85	=85	=85	=85	=85	=85	=85	=85	=85	=85	=85	=85	=85	=85	=85	=85	=85
8AAA/)	8AA/)	.	2e/_ [2A/	2ee\_ [2a\	.	[2AA/)	.	.	2E/_	.	.	[2A/)	.	.	2e/_	.	.
8r	8r	.	.	.	.	.	.	.	.	.	.	.	.	.	.	.	.
(16GGG/LL	(16GG/LL	.	.	.	.	.	.	.	.	.	.	.	.	.	.	.	.
16AAA/	16AA/	.	.	.	.	.	.	.	.	.	.	.	.	.	.	.	.
16GGG/	16GG/	.	.	.	.	.	.	.	.	.	.	.	.	.	.	.	.
16EEE/JJ	16EE/JJ	.	.	.	.	.	.	.	.	.	.	.	.	.	.	.	.
=86	=86	=86	=86	=86	=86	=86	=86	=86	=86	=86	=86	=86	=86	=86	=86	=86	=86
16GGG/LL	16GG/LL	.	2e/] 2A/]	2ee\] 2a\]	.	2AA/_	.	.	2E/_	.	.	2A/_	.	.	2e/_	.	.
16AAA/	16AA/	.	.	.	.	.	.	.	.	.	.	.	.	.	.	.	.
16GGG/	16GG/	.	.	.	.	.	.	.	.	.	.	.	.	.	.	.	.
16EEE/JJ	16EE/JJ	.	.	.	.	.	.	.	.	.	.	.	.	.	.	.	.
16GGG/LL	16GG/LL	.	.	.	.	.	.	.	.	.	.	.	.	.	.	.	.
16AAA/	16AA/	.	.	.	.	.	.	.	.	.	.	.	.	.	.	.	.
16GGG/	16GG/	.	.	.	.	.	.	.	.	.	.	.	.	.	.	.	.
16EEE/JJ	16EE/JJ	.	.	.	.	.	.	.	.	.	.	.	.	.	.	.	.
=87	=87	=87	=87	=87	=87	=87	=87	=87	=87	=87	=87	=87	=87	=87	=87	=87	=87
8AAA/)	8AA/)	.	16r	16r	.	8AA/]	.	.	8E/]	.	.	8A/]	.	.	8e/]	.	.
.	.	.	(16f/LL	(16ff\LL	.	.	.	.	.	.	.	.	.	.	.	.	.
*X8ba	*	*	*	*	*	*	*	*	*	*	*	*	*	*	*	*	*
8r	8r	.	16e/	16ee\	.	8r	.	.	8r	.	.	8r	.	.	8r	.	.
.	.	.	16f/JJ	16ff\JJ	.	.	.	.	.	.	.	.	.	.	.	.	.
4r	4r	.	16g/LL	16gg\LL	.	4r	.	.	4r	.	.	4r	.	.	4r	.	.
.	.	.	16a/	16aa\	.	.	.	.	.	.	.	.	.	.	.	.	.
.	.	.	16b-/	16bb-\	.	.	.	.	.	.	.	.	.	.	.	.	.
.	.	.	16cc/JJ)	16ccc\JJ)	.	.	.	.	.	.	.	.	.	.	.	.	.
=88	=88	=88	=88	=88	=88	=88	=88	=88	=88	=88	=88	=88	=88	=88	=88	=88	=88
!	!	!	!	!	!	!	!	!LO:DY:b:rj	!	!	!LO:DY:rj	!	!	!	!	!	!
4.DD/	4.A\ 4.F\ 4.D\	.	(16dd\LL	(16ddd\LL	.	4.D\	.	pp	4.A/ 4.F/	"Bo-	pp	2r	.	.	2r	.	.
.	.	.	16cc\J	16ccc\J	.	.	.	.	.	.	.	.	.	.	.	.	.
.	.	.	8a\J)	8aa\J)	.	.	.	.	.	.	.	.	.	.	.	.	.
.	.	.	8b-'\L	8bb-'\L	.	.	.	.	.	.	.	.	.	.	.	.	.
8DD/	8A\ 8F\ 8D\	.	8dd'\J	8ddd'\J	.	8D\	.	.	8A/ 8F/	-że	.	.	.	.	.	.	.
!!LO:LB:g=original
=89	=89	=89	=89	=89	=89	=89	=89	=89	=89	=89	=89	=89	=89	=89	=89	=89	=89
4DD/	4A\ 4F\ 4D\	.	8cc\	8ccc'\	.	4D\	.	.	4A/ 4F/	daj,	.	2r	.	.	2r	.	.
.	.	.	4a^^/	4aa^^\	.	.	.	.	.	.	.	.	.	.	.	.	.
4DD/	4A\ 4F\ 4D\	.	.	.	.	8D\	.	.	8A/ 8F/	Bo-	.	.	.	.	.	.	.
.	.	.	8r	8r	.	8D\	.	.	8A/ 8F/	-że	.	.	.	.	.	.	.
=90	=90	=90	=90	=90	=90	=90	=90	=90	=90	=90	=90	=90	=90	=90	=90	=90	=90
*	*	*	*	*	*	*^	*	*	*	*	*	*	*	*	*	*	*
(2GG/ 2GGG/	(2B-\ 2G\ 2D\	.	(16g/LL	(16gg\LL	.	(2D/	(2GG\	.	.	(2B-/ (2G/	daj	.	2r	.	.	2r	.	.
.	.	.	16f/J	16ff\J	.	.	.	.	.	.	.	.	.	.	.	.	.	.
.	.	.	8e/J)	8ee\J)	.	.	.	.	.	.	.	.	.	.	.	.	.	.
.	.	.	8f'/L	8ff'\L	.	.	.	.	.	.	.	.	.	.	.	.	.	.
.	.	.	8g'/J	8gg'\J	.	.	.	.	.	.	.	.	.	.	.	.	.	.
=91	=91	=91	=91	=91	=91	=91	=91	=91	=91	=91	=91	=91	=91	=91	=91	=91	=91	=91
*	*	*	*	*	*	*	*	*	*	*^	*	*	*	*	*	*	*	*
2DD/)	2A\ 2F\ 2D\)	.	8e'/	8ee'\	.	2F/)	2D\)	.	.	2A/))	2F\	.	.	2r	.	.	2r	.	.
.	.	.	(4d/	(4dd\	.	.	.	.	.	.	.	.	.	.	.	.	.	.	.
.	.	.	16f/LL	16ff\LL	.	.	.	.	.	.	.	.	.	.	.	.	.	.	.
.	.	.	16a/JJ	16aa\JJ	.	.	.	.	.	.	.	.	.	.	.	.	.	.	.
=92	=92	=92	=92	=92	=92	=92	=92	=92	=92	=92	=92	=92	=92	=92	=92	=92	=92	=92	=92
!	!	!LO:DY:t=sempre  più piano	!	!	!	!	!	!	!LO:DY:t=sempre  più piano	!	!	!	!LO:DY:t=sempre  più piano	!	!	!	!	!	!
2BB-/ 2BBB-/	2d\ 2B-\ 2F\	p	8dd\)	8ddd\)	.	4.F/	4.BB-\	.	p	4.d/	4.B-\	Daj	p	2r	.	.	2r	.	.
!	!	!	!	!	!LO:DY:t=sempre  più piano	!	!	!	!	!	!	!	!	!	!	!	!	!	!
.	.	.	(4f/	(4ff\	p	.	.	.	.	.	.	.	.	.	.	.	.	.	.
.	.	.	16g/LL	16gg\LL	.	8F/	8BB-\	.	.	8d/	8B-\	ro-	.	.	.	.	.	.	.
.	.	.	16a/JJ)	16aa\JJ)	.	.	.	.	.	.	.	.	.	.	.	.	.	.	.
=93	=93	=93	=93	=93	=93	=93	=93	=93	=93	=93	=93	=93	=93	=93	=93	=93	=93	=93	=93
(4E-X/ 4EE-X/	(4e-X\ 4B-\ 4G\	.	(16g\LL	(16gg\LL	.	4G/	4E-X\	.	.	4e-X/	4B-\	-dzin-	.	2r	.	.	2r	.	.
.	.	.	16b-\	16bb-\	.	.	.	.	.	.	.	.	.	.	.	.	.	.	.
.	.	.	16cc\	16ccc\	.	.	.	.	.	.	.	.	.	.	.	.	.	.	.
.	.	.	16ee-X\JJ	16eee-X\JJ	.	.	.	.	.	.	.	.	.	.	.	.	.	.	.
4BB-/ 4BBB-/)	4d\ 4B-\ 4F\)	.	8dd\L)	8ddd\L)	.	4F/	4BB-\	.	.	4d/	4B-\	-ny	.	.	.	.	.	.	.
.	.	.	(16cc\L	(16ccc\L	.	.	.	.	.	.	.	.	.	.	.	.	.	.	.
.	.	.	16b-\JJ	16bb-\JJ	.	.	.	.	.	.	.	.	.	.	.	.	.	.	.
=94	=94	=94	=94	=94	=94	=94	=94	=94	=94	=94	=94	=94	=94	=94	=94	=94	=94	=94	=94
*	*	*	*clefG2	*	*	*	*	*	*	*	*	*	*	*	*	*	*	*	*
(4.FF/	2c\ 2A\ 2F\	.	8cc\)	8ccc\)	.	4.F/	4.F\	.	.	4.c/	4.A\	wró-	.	2r	.	.	2r	.	.
.	.	.	4ff\	4fff\	.	.	.	.	.	.	.	.	.	.	.	.	.	.	.
8E-X/ 8EE-X/)	.	.	(16f/LL	(16ff\LL	.	8F/	8E-X\	.	.	8c/	8A\	-cić	.	.	.	.	.	.	.
.	.	.	16g/JJ)	16gg\JJ)	.	.	.	.	.	.	.	.	.	.	.	.	.	.	.
!!LO:PB:g=original
=95	=95	=95	=95	=95	=95	=95	=95	=95	=95	=95	=95	=95	=95	=95	=95	=95	=95	=95	=95
(4D/ 4DD/	(4d\ 4A\ 4F\	.	8a'/L	8aa'\L	.	(4F/	(4D\	.	.	(4d/	(4A\	daj,	.	2r	.	.	2r	.	.
.	.	.	(<16g/L	(16gg\L	.	.	.	.	.	.	.	.	.	.	.	.	.	.	.
.	.	.	16a/JJ	16aa\JJ	.	.	.	.	.	.	.	.	.	.	.	.	.	.	.
4GG/ 4GGG/)	4B-\ 4G\)	.	8b-'\L)	8bb-\L)	.	4G/)	4GG\)	.	.	4B-/)	4G\)	.	.	.	.	.	.	.	.
.	.	.	8dd'\J	8ddd'\J	.	.	.	.	.	.	.	.	.	.	.	.	.	.	.
=96	=96	=96	=96	=96	=96	=96	=96	=96	=96	=96	=96	=96	=96	=96	=96	=96	=96	=96	=96
(4.C/ 4.CC/	(4.A\ 4.E-X\	.	(16ee-X\LL	(16eee-X\LL	.	4.E-X/	4.C\	.	.	4.A/	4.A\	Lub	.	2r	.	.	2r	.	.
.	.	.	16dd\J	16ddd\J	.	.	.	.	.	.	.	.	.	.	.	.	.	.	.
.	.	.	8cc\J)	8ccc\J)	.	.	.	.	.	.	.	.	.	.	.	.	.	.	.
.	.	.	[4gg\	[4ggg\	.	.	.	.	.	.	.	.	.	.	.	.	.	.	.
8BB-/ 8BBB-/)	8B-\ 8G\ 8D\)	.	.	.	.	8D/	8BB-\	.	.	8B-/	8G\	wa-	.	.	.	.	.	.	.
=97	=97	=97	=97	=97	=97	=97	=97	=97	=97	=97	=97	=97	=97	=97	=97	=97	=97	=97	=97
(8AA/L 8AAA/	(8c\L 8A\ 8C\	.	16gg\LL]	16ggg\LL]	.	8C/	8AA\	.	.	8c/	8A\	-lecz-	.	2r	.	.	2r	.	.
.	.	.	(16ff\	(16fff\	.	.	.	.	.	.	.	.	.	.	.	.	.	.	.
8GG/ 8GGG/	8d\ 8B-\ 8D\	.	16gg\	16ggg\	.	8BB-/	8GG\	.	.	8d/	8B-\	-nych	.	.	.	.	.	.	.
.	.	.	16b-\JJ	16bb-\JJ	.	.	.	.	.	.	.	.	.	.	.	.	.	.	.
8AA/ 8AAA/	8c\ 8A\ 8C\	.	16ee-X\LL	16eee-X\LL	.	8C/	8AA\	.	.	8c/	8A\	chlub-	.	.	.	.	.	.	.
.	.	.	16ff\	16fff\	.	.	.	.	.	.	.	.	.	.	.	.	.	.	.
8BB-/J 8BBB-/)	8B-\J 8G\ 8D\)	.	16ee-\	16eee-\	.	8D/	8BB-\	.	.	8B-/	8G\	-ny	.	.	.	.	.	.	.
.	.	.	16dd\JJ)	16ddd\JJ)	.	.	.	.	.	.	.	.	.	.	.	.	.	.	.
*	*	*	*	*	*	*v	*v	*	*	*	*	*	*	*	*	*	*	*	*
*	*	*	*	*	*	*	*	*	*v	*v	*	*	*	*	*	*	*	*
=98	=98	=98	=98	=98	=98	=98	=98	=98	=98	=98	=98	=98	=98	=98	=98	=98	=98
*	*	*	*	*8va	*	*	*	*	*	*	*	*	*	*	*	*	*
*	*	*	*	*	*	*^	*	*	*^	*	*	*	*	*	*	*	*
(2DD/	(2A\ 2F\ 2D\	.	8ff'\L	8fff'\L	.	[2D/	(2D\	.	.	(2A/	(2F\	zgon.	.	2r	.	.	2r	.	.
.	.	.	(16gg\L	(16ggg\L	.	.	.	.	.	.	.	.	.	.	.	.	.	.	.
.	.	.	16ff\JJ	16fff\JJ	.	.	.	.	.	.	.	.	.	.	.	.	.	.	.
.	.	.	8aa\L)	8aaa\L)	.	.	.	.	.	.	.	.	.	.	.	.	.	.	.
.	.	.	8ff'\J	8fff'\J	.	.	.	.	.	.	.	.	.	.	.	.	.	.	.
=99	=99	=99	=99	=99	=99	=99	=99	=99	=99	=99	=99	=99	=99	=99	=99	=99	=99	=99	=99
4GG/ 4GGG/)	4G\ 4D\)	.	8gg\	8ggg\	.	4D/]	4GG\)	.	.	4G/)	4G\)	.	.	2r	.	.	2r	.	.
.	.	.	4bb-\	4bbb-\	.	.	.	.	.	.	.	.	.	.	.	.	.	.	.
4r	4r	.	.	.	.	4rc	4rEEyy	.	.	4r	4ryy	.	.	.	.	.	.	.	.
.	.	.	[8bb-\	[8bbb-\	.	.	.	.	.	.	.	.	.	.	.	.	.	.	.
*	*	*	*	*	*	*	*	*	*	*v	*v	*	*	*	*	*	*	*	*
=100	=100	=100	=100	=100	=100	=100	=100	=100	=100	=100	=100	=100	=100	=100	=100	=100	=100	=100
(4.GG/ 4.GGG/	(>4.En/ 4.BB-/	.	8bb-\L]	8bbb-\L]	.	4.En/	4.En\	Lub	.	2r	.	.	2r	.	.	2r	.	.
.	.	.	(16aa\L	(16aaa\L	.	.	.	.	.	.	.	.	.	.	.	.	.	.
.	.	.	16gg\JJ	16ggg\JJ	.	.	.	.	.	.	.	.	.	.	.	.	.	.
.	.	.	8bb-\L)	8bbb-\L)	.	.	.	.	.	.	.	.	.	.	.	.	.	.
8FF/ 8FFF/	8F/ 8D/ 8AA/	.	8aa'\J	8aaa'\J	.	8F/	8D\	wa-	.	.	.	.	.	.	.	.	.	.
=101	=101	=101	=101	=101	=101	=101	=101	=101	=101	=101	=101	=101	=101	=101	=101	=101	=101	=101
*	*^	*	*	*	*	*	*	*	*	*	*	*	*	*	*	*	*	*
4.EE/ 4.EEE/	8G/L 8E/	4.BB-\	.	8gg'\	8ggg'\	.	8G/	8E\	-lecz-	.	2r	.	.	2r	.	.	2r	.	.
.	8A/ 8F/	.	.	4dd^^\	4ddd^^\	.	8A/	8F\	-nych	.	.	.	.	.	.	.	.	.	.
.	8G/ 8E/	.	.	.	.	.	8G/	8E\	chlu-	.	.	.	.	.	.	.	.	.	.
*	*v	*v	*	*	*	*	*v	*v	*	*	*	*	*	*	*	*	*	*	*
*	*	*	*	*X8va	*	*	*	*	*	*	*	*	*	*	*	*	*
*	*^	*	*	*	*	*^	*	*	*	*	*	*	*	*	*	*	*
8FF/ 8FFF/)	8F/J 8D/)	8AA\	.	8r	8r	.	8F/	8D\	-bny	.	.	.	.	.	.	.	.	.	.
*	*v	*v	*	*	*	*	*	*	*	*	*	*	*	*	*	*	*	*	*
!!LO:LB:g=original
=102	=102	=102	=102	=102	=102	=102	=102	=102	=102	=102	=102	=102	=102	=102	=102	=102	=102	=102
2GG/ 2GGG/	2E/ 2BB-/	.	(16dd\LL	(16ddd\LL	.	[2E/	[2E\	zgon.	.	2r	.	.	2r	.	.	2r	.	.
.	.	.	16cc\J	16ccc\J	.	.	.	.	.	.	.	.	.	.	.	.	.	.
.	.	.	8a\J)	8aa\J)	.	.	.	.	.	.	.	.	.	.	.	.	.	.
.	.	.	8b-'\L	8bb-'\L	.	.	.	.	.	.	.	.	.	.	.	.	.	.
.	.	.	8dd'\J	8ddd'\J	.	.	.	.	.	.	.	.	.	.	.	.	.	.
=103	=103	=103	=103	=103	=103	=103	=103	=103	=103	=103	=103	=103	=103	=103	=103	=103	=103	=103
2AA/ 2AAA/	2E/ 2C/	.	8cc'\L	8ccc'\L	.	(2E/]	(2E\]	.	.	2r	.	.	2r	.	.	2r	.	.
.	.	.	[8a\J	[8aa\J	.	.	.	.	.	.	.	.	.	.	.	.	.	.
.	.	.	16a\LL]	16aa\LL]	.	.	.	.	.	.	.	.	.	.	.	.	.	.
.	.	.	(16cc\	(16ccc\	.	.	.	.	.	.	.	.	.	.	.	.	.	.
.	.	.	16dd\	16ddd\	.	.	.	.	.	.	.	.	.	.	.	.	.	.
.	.	.	16ee\JJ)	16eee\JJ)	.	.	.	.	.	.	.	.	.	.	.	.	.	.
=104	=104	=104	=104	=104	=104	=104	=104	=104	=104	=104	=104	=104	=104	=104	=104	=104	=104	=104
(16DD/LL	(16D/LL	.	8ff\ 8dd\ 8a'\	8fff\ 8ddd\ 8aa'\	.	[2D/)	[2D\)	.	.	2r	.	.	2r	.	.	2r	.	.
16CC/J	16C/J	.	.	.	.	.	.	.	.	.	.	.	.	.	.	.	.	.
8AAA/J)	8AA/J)	>	8r	8r	.	.	.	.	.	.	.	.	.	.	.	.	.	.
8BBB-'/L	8BB-'/L	.	4r	4r	.	.	.	.	.	.	.	.	.	.	.	.	.	.
8DD'/J	8D'/J	.	.	.	.	.	.	.	.	.	.	.	.	.	.	.	.	.
=105	=105	=105	=105	=105	=105	=105	=105	=105	=105	=105	=105	=105	=105	=105	=105	=105	=105	=105
8CC'/	8C'/	.	8r	8r	.	8D/]	8D\]	.	.	2r	.	.	2r	.	.	2r	.	.
*	*	*	*	*	*	*v	*v	*	*	*	*	*	*	*	*	*	*	*
*	*	*	*	*8va	*	*	*	*	*	*	*	*	*	*	*	*	*
*	*	*	*	*	*	*^	*	*	*	*	*	*	*	*	*	*	*
!	!	!	!	!	!LO:DY:rj	!	!	!	!	!	!	!	!	!	!	!	!	!
4AAA/	4AA/	]	8ff/L 8cc/ 8a'/	8fff/L 8ccc/ 8aa'/	ppp	8r	8ryy	.	.	.	.	.	.	.	.	.	.	.
.	.	.	8ee/ 8b-/ 8g'/	8eee/ 8bb-/ 8gg'/	.	4r	4ryy	.	.	.	.	.	.	.	.	.	.	.
8r	8r	.	8cc/J 8g/ 8e'/	8ccc/J 8gg/ 8ee'/	.	.	.	.	.	.	.	.	.	.	.	.	.	.
*	*	*	*	*	*	*v	*v	*	*	*	*	*	*	*	*	*	*	*
*	*	*	*	*X8va	*	*	*	*	*	*	*	*	*	*	*	*	*
=106	=106	=106	=106	=106	=106	=106	=106	=106	=106	=106	=106	=106	=106	=106	=106	=106	=106
*	*	*	*	*	*	*	*	*	*^	*	*	*	*	*	*	*	*
!	!	!	!	!	!	!	!	!LO:DY:rj	!	!	!	!	!	!	!	!	!	!
[2DD/	[2A\ [2F\ [2D\	ppp	8a/ 8f/ 8d'/	8aa\ 8ff\ 8dd'\	.	[2D\	.	ppp	[2A/	[2F\	Bo-	ppp	2r	.	.	2r	.	.
.	.	.	8r	8r	.	.	.	.	.	.	.	.	.	.	.	.	.	.
.	.	.	4r	4r	.	.	.	.	.	.	.	.	.	.	.	.	.	.
=107	=107	=107	=107	=107	=107	=107	=107	=107	=107	=107	=107	=107	=107	=107	=107	=107	=107	=107
4DD/]	4A\] 4F\] 4D\]	.	8r	8r	.	4D\]	.	.	4A/]	4F\]	.	.	2r	.	.	2r	.	.
.	.	.	8g/L 8f/ 8d'/	8gg\L 8ff\ 8dd'\	.	.	.	.	.	.	.	.	.	.	.	.	.	.
4DD/	4A\ 4F\ 4D\	.	8a/ 8f/ 8d'/	8aa\ 8ff\ 8dd'\	.	4D\	.	.	4A/	4F\	-że	.	.	.	.	.	.	.
.	.	.	8dd/J 8a/ 8f'/	8ddd\J 8aa\ 8ff'\	.	.	.	.	.	.	.	.	.	.	.	.	.	.
=108	=108	=108	=108	=108	=108	=108	=108	=108	=108	=108	=108	=108	=108	=108	=108	=108	=108	=108
*	*	*	*	*	*	*^	*	*	*	*	*	*	*	*	*	*	*	*
[2GG/ [2GGG/	[2B-\ [2G\ [2D\	.	8dd/ 8g'/	8eee\ 8bb-\ 8gg'\	.	[2D/	[2GG\	.	.	[2B-/	[2G\	daj!"	.	2r	.	.	2r	.	.
*	*	*	*	*8va	*	*	*	*	*	*	*	*	*	*	*	*	*	*	*
!	!	!	!	!LO:TX:b:i:t=legg.	!	!	!	!	!	!	!	!	!	!	!	!	!	!	!
.	.	.	16r	16r	.	.	.	.	.	.	.	.	.	.	.	.	.	.	.
.	.	.	(16dd\	(16eee\ 16bb-\	.	.	.	.	.	.	.	.	.	.	.	.	.	.	.
.	.	.	16gg\LL	16fff\LL 16ddd\	.	.	.	.	.	.	.	.	.	.	.	.	.	.	.
.	.	.	16dd\	16eee\ 16bb-\	.	.	.	.	.	.	.	.	.	.	.	.	.	.	.
.	.	.	16gg\	16fff\ 16ddd\	.	.	.	.	.	.	.	.	.	.	.	.	.	.	.
.	.	.	16dd\JJ	16eee\JJ 16bb-\	.	.	.	.	.	.	.	.	.	.	.	.	.	.	.
!!LO:PB:g=original
=109	=109	=109	=109	=109	=109	=109	=109	=109	=109	=109	=109	=109	=109	=109	=109	=109	=109	=109	=109
2GG/] 2GGG/]	2B-\] 2G\] 2D\]	.	8gg\)	8fff\ 8ddd\)	.	2D/_	(2GG\]	.	.	(2B-/]	(2G\]	.	.	2r	.	.	2r	.	.
.	.	.	16r	16r	.	.	.	.	.	.	.	.	.	.	.	.	.	.	.
.	.	.	(16dd\	(16eee\ 16bb-\	.	.	.	.	.	.	.	.	.	.	.	.	.	.	.
.	.	.	16gg\LL	16fff\LL 16ddd\	.	.	.	.	.	.	.	.	.	.	.	.	.	.	.
.	.	.	16dd\	16eee\ 16bb-\	.	.	.	.	.	.	.	.	.	.	.	.	.	.	.
.	.	.	16gg\	16fff\ 16ddd\	.	.	.	.	.	.	.	.	.	.	.	.	.	.	.
.	.	.	16dd\JJ	16eee\JJ 16bb-\	.	.	.	.	.	.	.	.	.	.	.	.	.	.	.
*	*	*	*	*	*	*	*	*	*	*v	*v	*	*	*	*	*	*	*	*
=110	=110	=110	=110	=110	=110	=110	=110	=110	=110	=110	=110	=110	=110	=110	=110	=110	=110	=110
[2DD/	[2A\ [2F\ [2D\	.	8aa\ 8ff\)	8fff\ 8ddd\)	.	2D/_	[2D\)	.	.	[2A/ [2F/))	.	.	2r	.	.	2r	.	.
*	*	*	*	*X8va	*	*	*	*	*	*	*	*	*	*	*	*	*	*
.	.	.	8r	8r	.	.	.	.	.	.	.	.	.	.	.	.	.	.
.	.	.	8r	8r	.	.	.	.	.	.	.	.	.	.	.	.	.	.
.	.	.	(16dd\LL	(16ddd\LL	.	.	.	.	.	.	.	.	.	.	.	.	.	.
.	.	.	16b-\JJ	16bb-\JJ	.	.	.	.	.	.	.	.	.	.	.	.	.	.
=111	=111	=111	=111	=111	=111	=111	=111	=111	=111	=111	=111	=111	=111	=111	=111	=111	=111	=111
4DD/]	4A\] 4F\] 4D\]	.	8a/)	8aa\)	.	2D/_	2D\_	.	.	2A/_ 2F/_	.	.	2r	.	.	2r	.	.
.	.	.	8r	8r	.	.	.	.	.	.	.	.	.	.	.	.	.	.
4r	4r	.	4r	4r	.	.	.	.	.	.	.	.	.	.	.	.	.	.
*	*	*	*	*	*	*v	*v	*	*	*	*	*	*	*	*	*	*	*
=112	=112	=112	=112	=112	=112	=112	=112	=112	=112	=112	=112	=112	=112	=112	=112	=112	=112
*	*	*	*	*	*	*^	*	*	*^	*	*	*	*	*	*	*	*
*8ba	*	*	*	*	*	*	*	*	*	*	*	*	*	*	*	*	*	*	*
(16GGG/LL	(16GG/LL	.	2r	2r	.	4D/]	4D\]	.	.	4A/]	4F\]	.	.	2r	.	.	2r	.	.
16FFF/J	16FF/J	.	.	.	.	.	.	.	.	.	.	.	.	.	.	.	.	.	.
8EEE/J)	8EE/J)	.	.	.	.	.	.	.	.	.	.	.	.	.	.	.	.	.	.
8FFF'/L	8FF'/L	.	.	.	.	4rc	4rEEyy	.	.	4r	4ryy	.	.	.	.	.	.	.	.
8GGG'/J	8GG'/J	.	.	.	.	.	.	.	.	.	.	.	.	.	.	.	.	.	.
*	*	*	*	*	*	*v	*v	*	*	*	*	*	*	*	*	*	*	*	*
*	*	*	*	*	*	*	*	*	*v	*v	*	*	*	*	*	*	*	*
=113	=113	=113	=113	=113	=113	=113	=113	=113	=113	=113	=113	=113	=113	=113	=113	=113	=113
*	*	*	*^	*	*	*	*	*	*	*	*	*	*	*	*	*	*
8EEE'/	8EE'/	.	4r	4rcyy	2r	.	4r	.	.	4r	.	.	2r	.	.	2r	.	.
4DDD/	4DD/	.	.	.	.	.	.	.	.	.	.	.	.	.	.	.	.	.
*	*	*	*clefF4	*	*	*	*	*	*	*	*	*	*	*	*	*	*	*
!	!	!	!	!	!	!	!	!	!LO:DY:rj	!	!	!LO:DY:rj	!	!	!	!	!	!
.	.	.	[4F/	[4D\	.	.	[4D\	.	pp	[4F/	Hm	pp	.	.	.	.	.	.
*X8ba	*	*	*	*	*	*	*	*	*	*	*	*	*	*	*	*	*	*
8r	8r	.	.	.	.	.	.	.	.	.	.	.	.	.	.	.	.	.
=114	=114	=114	=114	=114	=114	=114	=114	=114	=114	=114	=114	=114	=114	=114	=114	=114	=114	=114
2r	2r	.	2F/]	2D\_	4r	.	2D\_	.	.	(2F/]	.	.	4r	.	pp	2r	.	.
.	.	.	.	.	(4A/	.	.	.	.	.	.	.	(4A/	Hm	.	.	.	.
=115	=115	=115	=115	=115	=115	=115	=115	=115	=115	=115	=115	=115	=115	=115	=115	=115	=115	=115
4r	4r	ppp	[2G/	2D\_	[2B-/)	.	2D\_	.	.	[2G/)	.	.	[2B-/)	.	.	2r	.	.
8AAA'/L	8AA'/L	.	.	.	.	.	.	.	.	.	.	.	.	.	.	.	.	.
8GGG'/J	8GG'/J	.	.	.	.	.	.	.	.	.	.	.	.	.	.	.	.	.
!!LO:LB:g=original
=116	=116	=116	=116	=116	=116	=116	=116	=116	=116	=116	=116	=116	=116	=116	=116	=116	=116	=116
4r	4r	.	2G/]	2D\]	2B-/]	.	2D\_	.	.	(2G/]	.	.	(2B-/]	.	.	2r	.	.
(16GGG/LL	(16GG/LL	.	.	.	.	.	.	.	.	.	.	.	.	.	.	.	.	.
16AAA/J	16AA/J	.	.	.	.	.	.	.	.	.	.	.	.	.	.	.	.	.
8BBB-/J)	8BB-/J)	.	.	.	.	.	.	.	.	.	.	.	.	.	.	.	.	.
=117	=117	=117	=117	=117	=117	=117	=117	=117	=117	=117	=117	=117	=117	=117	=117	=117	=117	=117
2r	2r	.	2F/	2D\	2A/	.	2D\_	.	.	[2F/)	.	.	[2A/)	.	.	2r	.	.
*	*	*	*v	*v	*	*	*	*	*	*	*	*	*	*	*	*	*	*
=118	=118	=118	=118	=118	=118	=118	=118	=118	=118	=118	=118	=118	=118	=118	=118	=118	=118
4r	4r	.	[2F\	(>2d/ [2F/	.	2D\_	.	.	2F/_	.	.	2A/_	.	.	(2d/	Hm	ppp
!	!	!LO:DY:t=sempre ppp	!	!	!	!	!	!	!	!	!	!	!	!	!	!	!
(16FFF/LL	(16FF/LL	ppp	.	.	.	.	.	.	.	.	.	.	.	.	.	.	<
16GGG/J	16GG/J	.	.	.	.	.	.	.	.	.	.	.	.	.	.	.	.
8AAA/J)	8AA/J)	.	.	.	.	.	.	.	.	.	.	.	.	.	.	.	[[
=119	=119	=119	=119	=119	=119	=119	=119	=119	=119	=119	=119	=119	=119	=119	=119	=119	=119
2r	2r	.	2F\_	[2e/ 2F/_	.	2D\_	.	.	2F/_	.	.	2A/_	.	.	[2e/)	.	.
=120	=120	=120	=120	=120	=120	=120	=120	=120	=120	=120	=120	=120	=120	=120	=120	=120	=120
4r	4r	.	2F\_	2e/] 2F/_	.	2D\_	.	.	2F/_	.	.	2A/_	.	.	(2e/]	.	.
(16AAA/LL	(16AA/LL	.	.	.	.	.	.	.	.	.	.	.	.	.	.	.	.
16BBB-/J	16BB-/J	.	.	.	.	.	.	.	.	.	.	.	.	.	.	.	>
8CC/J)	8C/J)	.	.	.	.	.	.	.	.	.	.	.	.	.	.	.	.
=121	=121	=121	=121	=121	=121	=121	=121	=121	=121	=121	=121	=121	=121	=121	=121	=121	=121
8DD/	8D'\	.	2F\_	[2d/ 2F/_)	.	2D\_	.	.	2F/_	.	.	2A/_	.	.	[2d/)	.	]
8r	8r	.	.	.	.	.	.	.	.	.	.	.	.	.	.	.	.
4r	4r	.	.	.	.	.	.	.	.	.	.	.	.	.	.	.	.
=122	=122	=122	=122	=122	=122	=122	=122	=122	=122	=122	=122	=122	=122	=122	=122	=122	=122
8DDD'/	8DD'/	.	2F\_	2d/_ 2F/_	.	2D\_	.	.	2F/_	.	.	2A/_	.	.	2d/_	.	.
8r	8r	.	.	.	.	.	.	.	.	.	.	.	.	.	.	.	.
4r	4r	.	.	.	.	.	.	.	.	.	.	.	.	.	.	.	.
=123	=123	=123	=123	=123	=123	=123	=123	=123	=123	=123	=123	=123	=123	=123	=123	=123	=123
8DDD'/	8DD'/	.	2F\_	2d/_ 2F/_	.	2D\_	.	.	2F/_	.	.	2A/_	.	.	2d/_	.	.
8r	8r	.	.	.	.	.	.	.	.	.	.	.	.	.	.	.	.
4r	4r	.	.	.	.	.	.	.	.	.	.	.	.	.	.	.	.
=124	=124	=124	=124	=124	=124	=124	=124	=124	=124	=124	=124	=124	=124	=124	=124	=124	=124
2r	2r	.	4F\]	4d/] 4F/]	.	4D\]	.	.	4F/]	.	.	4A/]	.	.	4d/]	.	.
.	.	.	4r	4r	.	4r	.	.	4r	.	.	4r	.	.	4r	.	.
==	==	==	==	==	==	==	==	==	==	==	==	==	==	==	==	==	==
*-	*-	*-	*-	*-	*-	*-	*-	*-	*-	*-	*-	*-	*-	*-	*-	*-	*-
!!!system-decoration: {{(s1,s2,s3,s4)}{(s5,s6)}{(s7,s8)}}
!!!RDF**kern: > = above
!!!RDF**kern: < = below
!!!EED: Andrzej Borzym
!!!EEV: 2021-05-30
!!!ENC: Mateusz Solarz
!!!END: 2021-05-10
